!!!!SEGMENT: 020-1a-Sm.krn
!!!COM: Chopin, Fryderyk
!!!OTL: Scherzo
!!!OPS: Op. 20
!!!PPR: M. Schlesinger
!!!PPP: Paris
!!!AGN: Scherzo
!!!NIFC-rismID: 1001065929
!!!NIFC-shelfmark: PL-Wbfc 6593/n
!!!OMD: Con fuoco [half]= 120.
**kern	**kern	**fing	**dynam
*part1	*part1	*	*part1
*staff2	*staff1	*	*
*	*	*	*
*clefF4	*clefG2	*	*
*k[f#c#]	*k[f#c#]	*	*
*M3/4	*M3/4	*	*
*>[A,A1,A,A2,B]	*>[A,A1,A,A2,B]	*	*
=1	=1	=1	=1
*>A	*>A	*>A	*>A
*ped	*8va	*	*
*clefG2	*	*	*
!LO:TX:b:t=P:klucz główny clefF4, zmiana na G2 przed 2.gg 2.ee 2.cc# 2.g:problem	!	!	!LO:DY:rj
[2.gg [2.ee [2.cc# [2.g	[2.bbb^< [2.eee [2.bb	.	ff
=2	=2	=2	=2
2.gg_ 2.ee_ 2.cc#_ 2.g_	2.bbb_ 2.eee_ 2.bb_	.	.
=3	=3	=3	=3
2.gg_ 2.ee_ [2.cc#_ 2.g_	2.bbb_ 2.eee_ 2.bb_	.	.
=4	=4	=4	=4
2.gg] 2.ee] 2.cc#] 2.g]	2.bbb] 2.eee] 2.bb]	.	.
*Xped	*	*	*
!LO:CL:ed	!	!	!
*clefF4	*X8va	*	*
=5	=5	=5	=5
*ped	*	*	*
!	!LO:TX:a:t=loco.	!	!LO:DY:rj
[<2.AA#X\ [2.AAA#X\	[<2.f#^< [<2.e [>2.c#< [>2.F#<	.	fz
=6	=6	=6	=6
2.AA#\_< 2.AAA#\_	2.f#_< 2.e_< 2.c#<_> 2.F#<_>	.	.
=7	=7	=7	=7
2.AA#\_< 2.AAA#\_	2.f#_< 2.e_< 2.c#<_> 2.F#<_>	.	.
=8	=8	=8	=8
2.AA#\] 2.AAA#\]	2.f#] 2.e] 2.c#<] 2.F#<]	.	.
*Xped	*	*	*
.	.	.	.
!!LO:LB:g=original
==9!|:	==9!|:	==9!|:	=9!|:
(>8D^<L< 8EE#X	4r	.	fz
.	.	.	p
8FF#	.	.	.
8BBBJ)	8r	.	.
!	!	!	!LO:HP:a
8rCC	(>8E#X<L	.	<
4rCC	8F#<	.	.
.	8B<J	.	.
=10	=10	=10	=10
!	!LO:TX:t=P:diminuendolike accent:problem	!	!
(4G 4E	8d^<L	.	.
.	8A#X	.	.
4F# 4D)	8c#	.	.
.	8B	.	.
4r	8d	.	.
.	8f#J	.	[[
=11	=11	=11	=11
(8D^<L< 8EE#X	8b/)	.	fz
8FF#	4r	.	.
8BBBJ)	.	.	.
!	!	!	!LO:HP:a
8rCC	(8E#X<L	.	<
4rCC	8F#<	.	.
.	8B<J	.	.
=12	=12	=12	=12
(4G 4E	8dL	.	.
.	8A#X	.	.
4F# 4D)	8c#	.	.
.	8B	.	.
4r	8d	.	.
.	8f#J	.	[[
=13	=13	=13	=13
4BB'\	8dd)	.	.
.	8r	.	.
4r	(8eeL	.	<
.	8a#X	.	.
4r	8dd	.	.
.	8bJ	.	.
=14	=14	=14	=14
*	*	*	*^
4d' 4F#	8ggL	.	.	.
.	8cc#	.	.	.
4BB'\	8ff#	.	.	.
!	!LO:TX:t=cres_:problem:dynamics with extention lines	!	!	!
!	!	!	!	!LO:HP:t=cres
.	8dd	.	.	<
4d' 4F#	8ccc#	.	.	.
.	8ee#XJ	.	.	.
!!LO:LB:g=original
=15	=15	=15	=15	=15
4BB'\	8bbL	.	.	.
.	8ff#	.	.	.
4d' 4F#	8eee	.	.	.
.	8aa#X	.	.	.
4BB'\	8ddd	.	.	.
.	8bbJ	.	[[	[[
*	*	*	*v	*v
=16	=16	=16	=16
4d' 4F#	4bbb')	.	fz
4r	4r	.	.
4r	4r	.	.
=17	=17	=17	=17
!LO:TX:t=P:diminuendolike accent:problem	!	!	!
(>8E^>L< 8FF#	4r	.	fz
8GG	.	.	.
8BBBJ)	8r	.	.
!	!	!	!LO:HP:a
8rCC	(8A#X<L	.	<
4rCC	8B<	.	.
.	8e<J	.	.
=18	=18	=18	=18
!	!LO:TX:t=P:diminuendolike accent:problem	!	!
(4cn 4A	8g^<L	.	.
.	8d#X	.	.
4B 4G)	8f#	.	.
.	8e	.	.
4r	8g	.	.
.	8bJ	.	.
=19	=19	=19	=19
!LO:TX:t=P:diminuendolike accent:problem	!	!	!
(>8E^>L< 8FF#	8ee)	.	[fz
8GG	4r	.	.
8BBBJ)	.	.	.
!	!	!	!LO:HP:a
8rCC	(>8A#X<L	.	<
4rCC	8B<	.	.
.	8eJ	.	.
=20	=20	=20	=20
!	!LO:TX:t=P:diminuendolike accent:problem	!	!
(4c# 4A	8g^<L	.	.
.	8d#X	.	.
4B 4G)	8f#	.	.
.	8e	.	.
4r	8g	.	.
.	8bJ	.	[
!!LO:LB:g=original
=21	=21	=21	=21
4BB\	8gg)	.	fz
.	8r	.	[
4r	(8ff#L	.	<
.	8a#X	.	.
4r	8ee	.	.
.	8bJ	.	.
=22	=22	=22	=22
*	*	*	*^
4e' 4G	8aaL	.	.	.
!	!LO:TX:t=cres_:problem:dynamics with extention lines	!	!	!
!	!	!	!	!LO:HP:t=cres
.	8dd#X	.	.	<
4BB'\	8gg	.	.	.
.	8ee	.	.	.
4e' 4G	8cccn	.	.	.
.	8ff#J	.	.	.
=23	=23	=23	=23	=23
4BB'\	8bbL	.	.	.
.	8gg	.	.	.
4e' 4G	8fff#	.	.	.
.	8aa#X	.	.	.
4BB'\	8eee	.	.	.
.	8bbJ	.	[[	[[
*	*	*	*v	*v
=24	=24	=24	=24
*	*8va	*	*
4e 4G	4eeee')	.	fz
4r	4r	.	.
4r	4r	.	.
*clefG2	*	*	*
=25	=25	=25	=25
*^	*	*	*
!	!	!	!	!LO:DY:rj
4ff#	2.ee 2.cc# (<2.a#X	(4fff#	.	f
2gg	.	8gggL	.	>
.	.	8fff#	.	.
.	.	8fffn	.	.
.	.	8eeeJ)	.	]
*v	*v	*	*	*
=26	=26	=26	=26
4gg' 4dd 4b)	(>8eeeL	.	>
.	8ddc	.	.
4f# 4F#	8ccc#	.	.
.	8bb	.	]
4r	8aa	.	.
.	8ggJ	.	.
*	*X8va	*	*
!!LO:LB:g=original
=27	=27	=27	=27
4cc#' 4an	8ff#L	.	>
.	8gg	.	.
4F#'	8ee#X	.	.
.	8ff#	.	.
4b' 4g	8bb	.	.
.	8eenJ	.	]
=28	=28	=28	=28
4a' 4f#	8ddL	.	>
.	8ee	.	.
4F#'	8cc#	.	.
.	8dd	.	.
4g' 4e	8gg	.	.
.	8bJ	.	]
*clefF4	*	*	*
=29	=29	=29	=29
*	*^	*	*
*	*	*^	*	*
4r	8b-XL>	4g	2c#^<\	.	.
.	8ee	.	.	.	.
2F#	8g#X	2rddddyy	.	.	.
.	8a	.	.	.	.
!	!	!	!LO:S:s=1:note:problem:note-level slur	!	!
.	8ff#	.	&(<4f#\ (<4d	.	.
.	8ddJ	.	.	.	.
=30	=30	=30	=30	=30	=30
4r	8b-XL>	4gn&)	2c#^<\)	.	.
.	8ee	.	.	.	.
[2F#	8g#X	2rbbbyy	.	.	.
.	8a	.	.	.	.
!	!	!	!LO:S:s=1:note:problem:note-level slur	!	!
.	8ff#	.	&(<4f#\ (<4d	.	.
.	8ddJ	.	.	.	.
=31	=31	=31	=31	=31	=31
4F#]	8a-XL>	4fn&)	2B^<\)	.	.
.	8dd	.	.	.	.
[2F#	8f#X	2rddddyy	.	.	.
.	8g	.	.	.	.
.	8ee	.	[4e\ (<4c#	.	.
.	8cc#J	.	.	.	.
=32	=32	=32	=32	=32	=32
4F#]	8gL>	4e]	2A#X^<\)	.	.
.	8cc#	.	.	.	.
(2F#	8e#X	2rbbbyy	.	.	.
.	8f#	.	.	.	.
.	8dd	.	4d\ 4B	.	.
.	8bJ)	.	.	.	.
*	*v	*v	*v	*	*
!!LO:PB:g=original
=33	=33	=33	=33
8e 8A#X 8F#)	8f#`	.	.
8r	8r	.	.
4FF# 4FFF#	(>8g^>L	.	fz
.	8f#	.	.
4r	8fn	.	.
.	8eJ	.	.
=34	=34	=34	=34
4G 4D 4BB	8e^>L	.	.
.	8d	.	.
4FF# 4FFF#	8c#	.	.
.	8B	.	.
4rGG	8A	.	.
.	8GJ	.	.
=35	=35	=35	=35
4C#'<\ 4AA\	8F#<L	.	.
.	8G<	.	.
4FFF#'</	8E#X<	.	.
.	8F#<	.	.
4BB'<\ 4GG\	8B<	.	.
.	8En<J	.	.
=36	=36	=36	=36
4AA'<\ 4FF#\	8D<L	.	.
.	8E<	.	.
4FFF#'</	8C#<	.	.
.	8D<	.	.
[<4GG'<\ 4EE\	8G<	.	.
.	8BB<J	.	.
=37	=37	=37	=37
*^	*	*	*
!LO:TX:t=P:2.GG and 2.CC# in the middle of the measure:problem	!	!	!	!
2.GG_	[2.CC#^\	8AA#X<L	.	.
.	.	8C#<	.	.
.	.	8E<	.	.
.	.	8G<	.	<
.	.	8A#X<	.	.
.	.	8c#<J	.	[
=38	=38	=38	=38	=38
!	!	!LO:TX:t=cres_:problem:dynamics with extention lines	!	!
!LO:TX:t=P:2.GG in the middle of the measure:problem	!	!	!	!LO:HP:t=cres
2.GG_	2CC#]	8d#XL	5	<
.	.	8e	1	.
.	.	8e#X	.	.
.	.	8f#	.	.
.	4BBB	8g	.	.
.	.	8dnJ	.	.
!!LO:LB:g=original
=39	=39	=39	=39	=39
4GG]	4AAA#X	8c#L	.	.
.	.	8e	.	.
4r	2rFFFyy	8ee 8cc#	.	.
.	.	8a#X	.	.
4r	.	8g	.	.
.	.	8fnJ	.	.
*v	*v	*	*	*
=40	=40	=40	=40
*	*	*	*^
4r	8eL	.	.	.
.	8e-X	.	.	.
!	!	!	!	!LO:HP:b=2
(4G'	8d	.	.	<
.	8c#	.	.	.
4G')	8cn	.	.	[
.	8BJ	.	[	.
*	*	*	*v	*v
=41	=41	=41	=41
*^	*	*	*
!	!	!	!	!LO:DY:rj
[2.G	[2.C#	8A#X^<L	.	fz
.	.	8c#	.	.
.	.	8e	.	.
.	.	8g	.	.
.	.	8a#X	.	.
.	.	8cc#J	.	.
=42	=42	=42	=42	=42
2.G_	2C#]	8dd#XL	.	.
.	.	8ee	.	.
.	.	8ee#X	.	.
.	.	8ff#	.	.
.	4BB	8gg	.	.
.	.	8ddnJ	.	.
=43	=43	=43	=43	=43
8G]	8AA#X	8cc#')	.	.
8reyy	8r	8r	.	.
2rgyy	4cn'> 4Cn	4aa#X'> 4gg 4ee 4a#X	.	ff
.	4B'> 4BB	4bb'> 4gg 4ee 4b	.	.
*v	*v	*	*	*
=44	=44	=44	=44
4A#X' 4AA#X	4ccc#X 4gg 4ee 4cc#X	.	.
!	!LO:TX:t=ritenuto.	!	!LO:DY:rj
(<4G\ 4GG\	4r	.	p>
4AA#/ 4AAA#X/	4r	.	]
!!LO:LB:g=original
=45	=45	=45	=45
[2.BB^>\ [2.BBB\	2.rdd	.	[
=46	=46	=46	=46
2.BB\_ 2.BBB\_	(>4r	.	.
.	4dd 4g 4d	.	.
.	4g 4d 4G<	.	.
=47	=47	=47	=47
*^	*	*	*
2c#^> 2G	2BB] 2BBB]	4f#	.	.
.	.	4e)	.	.
4rGyy	4AA#X 4AAA#X)	4r	.	.
*v	*v	*	*	*
=48	=48	=48	=48
!	!	!	!LO:DY:b=2:rj
(4An 4AAn	2.rdd	.	f>
4G\ 4GG\	.	.	.
4AA#X\ 4AAA#X\	.	.	]
=49	=49	=49	=49
[2.BB\ [2.BBB\)	4r	.	.
.	4r	.	.
!	!	!	!LO:DY:rj
.	([4ee^>\ [<4g\ [4e\	.	fz
=50	=50	=50	=50
2.BB\_ 2.BBB\_	4ee\] 4g\] 4e\]	.	]
.	4dd 4g 4d	.	.
.	4g 4d 4G<	.	.
=51	=51	=51	=51
*^	*	*	*
N[2.c# N[2.G	2.BB\] 2.BBB\]	2f#	.	.
.	.	[>4e)	.	.
*v	*v	*	*	*
=52	=52	=52	=52
4BB'> 4BBB	2.e 2.c#<N] 2.G<N]	.	>
(4BB 4BBB	.	.	.
4AA#X 4AAA#X	.	.	.
!!LO:LB:g=original
=53	=53	=53	=53
*^	*	*	*
2B 2F#	2.BB 2.BBB)	(4e^>	.	.
.	.	4d)	.	.
4rAyy	.	4r	.	.
*v	*v	*	*	*
=54	=54	=54	=54
4BB'>\ 4BBB\	2.rdd	.	.
(4BB\ 4BBB\	.	.	.
4AA#X\ 4AAA#X\)	.	.	.
=55	=55	=55	=55
*^	*	*	*
2B 2F#	2.BB 2.BBB	(4e^>	.	.
.	.	4d)	.	.
4rFyy	.	4r	.	.
!	!	!LO:TX:t=ritenuto.	!	!
*v	*v	*	*	*
=56	=56	=56	=56
(4BB\ 4BBB\	2.rdd	.	.
4C#\ 4CC#\	.	.	.
4D\ 4DD\	.	.	.
=57	=57	=57	=57
*^	*	*	*
2.B 2.G	2.EE/ 2.EEE/)	(2d^>	.	.
.	.	4c#)	.	.
*v	*v	*	*	*
=58	=58	=58	=58
!	!	!	!LO:DY:rj
([2.e	([2.ee^<	.	p
=59	=59	=59	=59
2.e_	2.ee_	.	.
=60	=60	=60	=60
*^	*^	*	*
!LO:N:vis=2	!	!LO:N:vis=2	!	!	!
2.e_	4d	2.ee_	4dd	.	.
*Xped	*	*	*	*	*
.	4c#	.	4cc#	.	.
.	4B	.	4b	.	.
=61	=61	=61	=61	=61	=61
!LO:N:vis=2	!	!LO:N:vis=2	!	!	!
2.e])	2.c#	2.ee])	2.cc#	.	.
*ped	*	*	*	*	*
.	.	.	.	.	.
8qGG 8qG/	.	8qb 8qe/	.	.	.
*v	*v	*	*	*	*
*	*v	*v	*	*
!!LO:LB:g=original
=62	=62	=62	=62
([2.e	([2.ee^	.	.
=63	=63	=63	=63
2.e_	2.ee_	.	.
*Xped	*	*	*
.	.	.	.
=64	=64	=64	=64
*^	*^	*	*
!LO:N:vis=2	!	!LO:N:vis=2	!	!	!
2.e]	4d	2.ee]	4dd	.	.
.	4c#	.	4cc#	.	.
.	4B)	.	4b)	.	.
*v	*v	*	*	*	*
*	*v	*v	*	*
=65	=65	=65	=65
!!LO:TX:a:B:t=1ª. Volta.
*>A1	*>A1	*>A1	*>A1
[2.F#^	[2.cc#^> [2.a#X [2.f# [2.e	.	.
=66	=66	=66	=66
2.F#_	2.cc#_ 2.a#X_ 2.f#_ 2.e_	.	.
=67	=67	=67	=67
2.F#_	2.cc#_ 2.a#X_ 2.f#_ 2.e_	.	.
=68	=68	=68	=68
2.F#]	2.cc#] 2.a#X] 2.f#] 2.e]	.	.
=69:|!	=69:|!	=69:|!	=69:|!
!!LO:TX:a:B:t=2ª. Volta
*>A2	*>A2	*>A2	*>A2
[2.F#	2.cc# (>[2.a#X [2.f# [2.e	.	.
=70	=70	=70	=70
(<2.F#_	2.cc#) 2.a#X] 2.f#_ 2.e]	.	.
=71	=71	=71	=71
4F#] 4BB)	4b 4f#] 4d	.	.
4r	4r	.	.
4r	4r	.	.
=72	=72	=72	=72
*>B	*>B	*>B	*>B
!LO:TX:a:t=1	!LO:TX:a:t=1	!	!
2.rF	2.rdd	.	.
!!LO:PB:g=original
=73	=73	=73	=73
!	!LO:TX:a:t=agitato.	!	!
!	!LO:TX:t=sotto voce.	!	!
(>8D^<L< 8FF#X	4r	.	.
8GG	.	.	.
8BBB-XJ)	8r	.	.
8rCC	(8D<L	.	.
4rCC	8G<	.	.
.	8d<J	.	.
=74	=74	=74	=74
(8AAAL<	4.e^>)	.	.
8GG	.	.	.
8C#J)	.	.	.
8rCC	(8G<L	.	.
4rCC	8A<	.	.
.	8G<J)	.	.
=75	=75	=75	=75
(>8F#L< 8GG#X	4r	.	.
8AA	.	.	.
!	!	!	!LO:HP:a
8DDJ)	(<8F#<L	.	<
8rCC	8A<	.	.
4rCC	8f#	.	.
.	8f#J	.	.
=76	=76	=76	=76
2.rF	8ff#')	.	[
.	8r	.	.
.	4r	.	.
.	4r	.	.
=77	=77	=77	=77
!	!LO:TX:t=cres_:problem:dynamics with extention lines	!	!
!	!	!	!LO:HP:t=cres
(>8F#L< 8AA#X	4r	.	<
8BB	.	.	.
8DDJ)	8r	.	.
8rEEyy	(8F#<L	.	.
4rEEyy	8B<	.	.
.	8f#J	.	.
=78	=78	=78	=78
(>8CC#L<	4.g#X^>)	.	.
8BB	.	.	.
8E#XJ)	.	.	.
8rEEyy	8B<L	.	.
4rEEyy	8c#<	.	.
.	8B<J	.	.
!!LO:LB:g=original
=79	=79	=79	=79
(>8A^>L< 8BB#X	4r	.	.
8C#	.	.	.
8FF#J)	(8A<L	.	.
8r	8c#	.	.
4r	8a	.	.
.	8aJ)	.	[
=80	=80	=80	=80
2.rF	8aa'	.	.
.	8r	.	.
.	4r	.	.
.	4r	.	.
=81	=81	=81	=81
(8A^>L< 8C#X	4r	.	.
8D	.	.	.
8FFnJ)	8r	.	.
8r	(8A<L	.	.
!	!LO:TX:t=cres_:problem:dynamics with extention lines	!	!
!	!	!	!LO:HP:t=cres
4r	8d	.	<
.	8aJ	.	.
=82	=82	=82	=82
(8EEL<	4.b/)	.	.
8D	.	.	.
8G#XJ)	.	.	.
8r	8dL	.	.
4r	8e	.	.
.	8dJ	.	[
=83	=83	=83	=83
(8c#X^L 8D#X	4r	.	.
8E	.	.	.
8AAJ)	8r	.	.
8r	(8c#L	.	.
4r	8e	.	.
.	[8cc#J)	.	.
=84	=84	=84	=84
!	!LO:TX:t=dim_:problem:dynamics with extention lines	!	!
!	!	!	!LO:HP:t=dim
(8c#^L< 8C##X	4cc#/]	.	<
8D#X	.	.	.
8AAnJ)	8r	.	.
8r	(8c#L	.	.
4r	8f##X	.	.
.	[8dd#XJ)	.	[[
!!LO:LB:g=original
=85	=85	=85	=85
(8B#X^L< 8C##X	4dd#X/]	.	.
8D#X	.	.	.
8GG#XJ)	8r	.	.
8r	(8B#XL	.	.
4r	8g#X	.	.
.	[8b#XJ)	.	.
=86	=86	=86	=86
(8cnL< 8C#X	4b#X/]	.	.
8Dn	.	.	.
8AA-XJ)	8r	.	.
8r	(<8cnL	.	.
4r	8f#X	.	.
.	[8ddnJ)	.	.
=87	=87	=87	=87
(>8BL< 8C#X	4dd/]	.	.
8D	.	.	.
8GGJ)	8r	.	.
8r	(<8BL	.	.
4r	8g	.	.
.	[8bJ)	.	.
=88	=88	=88	=88
(>8BnL< 8BB#X	4b/]	.	.
8C#	.	.	.
8GGnJ)	8r	.	.
8r	(<8BL	.	.
4r	8e#X	.	.
.	[8cc#J)	.	.
=89	=89	=89	=89
*ped	*	*	*
(>8A#XL<	4.cc#/]	.	.
8C#	.	.	.
8FF#J)	.	.	.
8rBB	(8A#X<L	.	.
4rBB	8f#	.	.
.	[8cc#J)	.	.
=90	=90	=90	=90
(8c#L	4.cc#/]	.	.
8F#	.	.	.
8AA#XJ)	.	.	.
!	!LO:TX:t=poco-a-poco-cres_:problem:dynamics with extention lines	!	!
!	!	!	!LO:HP:t=poco-a-poco-cres
8r	(<8c#L	.	<
4r	8a#X	.	.
*Xped	*	*	*
.	8ff#J)	.	.
!!LO:LB:g=original
=91	=91	=91	=91
*ped	*	*	*
(8dL	4r	.	.
8F#	.	.	.
8GG#XJ)	8r	.	.
8r	(<8dL	.	.
4r	8b	.	.
*Xped	*	*	*
.	8ff#J)	.	.
=92	=92	=92	=92
*ped	*	*	*
(8e#XL	4r	.	.
8B	.	.	.
8C#J)	8r	.	.
8r	(<8e#XL>	.	.
4r	8b	.	.
*Xped	*	*	*
.	8gg#XJ)	.	.
=93	=93	=93	=93
*ped	*	*	*
(8g#X>L	4rdd	.	.
8A#X	.	.	.
8EJ)	8rdd	.	.
8r	(<8g#L>	.	.
4r	8cc#	.	.
*Xped	*	*	*
.	8aa#XJ)	.	.
=94	=94	=94	=94
*ped	*	*	*
(8f##X>L	4rdd	.	.
8A#X	.	.	.
8D#XJ)	8rdd	.	.
8r	(<8f#XL>	.	.
4r	8dd#X	.	.
*Xped	*	*	*
.	8aa#XJ)	.	.
=95	=95	=95	=95
*ped	*	*	*
(8b>L	4rff	.	.
8d#X>	.	.	.
8G#XJ)	8rff	.	.
8r	(<8g#yL>	.	.
4r	8dd#X	.	.
*Xped	*	*	*
.	8bbJ)	.	.
=96	=96	=96	=96
*ped	*	*	*
(8e#X>L	4rdd	.	.
8B	.	.	.
8C#J)	8rdd	.	.
8r	(<8e#L>	.	.
4r	8b	.	.
*Xped	*	*	*
.	8gg#XJ)	.	.
!!LO:LB:g=original
=97	=97	=97	=97
*ped	*	*	*
(8a#X>L	4rdd	.	.
8c#	.	.	.
8F#J)	8rdd	.	.
8r	(<8f#L>	.	.
4r	8a#	.	.
*Xped	*	*	*
.	8ff#J)	.	.
*clefG2	*	*	*
=98	=98	=98	=98
*	*^	*	*
*ped	*	*	*	*
(8cc#^>L 8f#	2reeeyy	4r	.	.
8A#XJ)	.	.	.	.
*	*	*8va	*	*
4r	.	(8fff#L	.	.
.	.	8aa#X	.	.
4r	4fff#	8fff#	.	.
*Xped	*	*	*	*
.	.	8ff#J)	.	.
=99	=99	=99	=99	=99
*ped	*	*	*	*
(8dd^>L 8f#	2reeeyy	4r	.	.
8G#XJ)	.	.	.	.
4r	.	(8fff#L	.	.
.	.	8bb	.	.
4r	4fff#	8fff#	.	.
*Xped	*	*	*	*
.	.	8ff#J)	.	.
=100	=100	=100	=100	=100
*ped	*	*	*	*
(8ee#X^>L 8b 8g#X	2rcccyy	4r	.	.
8c#J)	.	.	.	.
4r	.	(>8ggg#XL	.	.
.	.	8ccc#	.	.
4r	4ggg#	8ggg#	.	.
*Xped	*	*	*	*
.	.	8bbJ)	.	.
*	*v	*v	*	*
=101	=101	=101	=101
*ped	*	*	*
(8gg#X^>L 8cc# 8a#X	4r	.	.
8enJ)	.	.	.
4r	(8aaa#XL	.	.
.	8ccc#	.	.
4r	8aaa#	.	.
*Xped	*	*	*
.	8gg#XJ)	.	.
=102	=102	=102	=102
*ped	*	*	*
(8ff##X^>L 8cc# 8a#X	4r	.	.
8d#XJ)	.	.	.
4r	(8aaa#XL	.	.
.	8ccc#	.	.
4r	8aaa#	.	.
.	8ff##XJ)	.	.
!!LO:LB:g=original
=103	=103	=103	=103
*ped	*	*	*
(8ff#^>L 8b 8f#	4r	.	.
8dnJ)	.	.	.
4r	(8bbbL	.	.
.	8ddd	.	.
4r	8bbb	.	.
*Xped	*	*	*
.	8ff#J)	.	.
=104	=104	=104	=104
*ped	*	*	*
(8ee#X^>L 8b 8g#X	4r	.	.
8c#J)	.	.	.
4r	(>8ggg#XL	.	.
.	8bb	.	.
4r	8ggg#	.	.
*Xped	*	*	*
.	8ee#XJ)	.	[[
=105	=105	=105	=105
*ped	*	*	*
(8a#X^>L 8f# 8c#	4r	.	.
8F#J)	.	.	.
!	!	!	!LO:DY:rj
4r	(8fff#^<L 8ccc#	.	ff
.	8aa#X	.	.
4r	8fff# 8ccc#	.	.
*Xped	*	*	*
.	8ff#J)	.	.
=106	=106	=106	=106
*ped	*	*	*
(8b^>L 8d	4r	.	.
8F#J)	.	.	.
4r	(>8ggg^<L 8ddd	.	.
.	8bb	.	.
4r	8ggg 8ddd	.	.
*Xped	*	*	*
.	8ggJ)	.	.
=107	=107	=107	=107
*ped	*	*	*
!	!LO:TX:a:t=sempre-piu-animato.:dur=4q:ext=ud:problem:text with extention lines	!	!
(8a#X^>L 8c#	4r	.	.
8F#J)	.	.	.
4r	8fff#^<L 8ccc#	.	.
.	8aa#X	.	.
*Xped	*	*	*
4r	8fff# 8ccc#	.	.
.	8ff#J	.	.
=108	=108	=108	=108
*ped	*	*	*
8an^>L 8cn	4r	.	.
8F#XJ	.	.	.
4r	(8fffn^<L 8cccn	.	.
.	8aan	.	.
4r	8fff 8ccc	.	.
*Xped	*	*	*
.	8ffnJ)	.	.
!!LO:PB:g=original
=109	=109	=109	=109
*ped	*	*	*
(8g#X^>L 8B	4r	.	.
8F#J)	.	.	.
4r	(8eee^<L< 8bb	.	.
.	8gg#X	.	.
4r	8eee 8bb	.	.
*Xped	*	*	*
.	8eeJ)	.	.
=110	=110	=110	=110
*ped	*	*	*
(8a^>L 8cn	4r	.	.
8F#XJ)	.	.	.
4r	(>8fffn^<L 8cccn	.	.
.	8aa	.	.
4r	8fff 8ccc	.	.
*Xped	*	*	*
.	8ffnyJ)	.	.
=111	=111	=111	=111
*ped	*	*	*
(8g#X^>L 8B	4r	.	.
8F#J)	.	.	.
4r	(8eee^<L< 8bb	.	.
.	8gg#X	.	.
4r	8eee 8bb	.	.
*Xped	*	*	*
.	8eeJ)	.	.
=112	=112	=112	=112
*ped	*	*	*
(8gn^>L 8B	4r	.	.
8F#J)	.	.	.
4r	(8eeeL< 8bb	.	.
.	8ggn	.	.
4r	8eee 8bb	.	.
*Xped	*	*	*
.	8eeJ)	.	.
=113	=113	=113	=113
*ped	*	*	*
4e 4c# 4F#	4eee\ 4ccc#\ 4aa#X\ 4gg\ 4ee\	.	fz
4r	4r	.	.
4r	4r	.	fff
*clefG2	*	*	*
=114	=114	=114	=114
(>8eee^<L	4r	.	.
8gg	.	.	.
8cc#J)	8ccc#^<L	.	.
8r	8aaa#X 8ggg	.	.
4r	8ccc#	.	.
.	8eeeeJ	.	.
!!LO:LB:g=original
=115	=115	=115	=115
(8ccc#^<L	4r	.	.
8ee	.	.	.
8a#XJ)	(8aa#X^<L	.	.
8r	8ggg 8eee	.	.
4r	8aa#	.	.
.	8cccc#J)	.	.
=116	=116	=116	=116
(8aa#X^<L	4r	.	.
8cc#	.	.	.
8gJ)	(>8gg^<L	.	.
8r	8eee 8ccc#X	.	.
4r	8gg	.	.
.	8aaa#XJ)	.	.
=117	=117	=117	=117
(>8gg^<L	4r	.	.
8a#X	.	.	.
8eJ)	(8ee^<L<	.	.
8r	8ccc# 8aa#X	.	.
4r	8ee	.	.
.	8gggJ)	.	.
=118	=118	=118	=118
(>8ee^<L<	4r	.	.
*	*X8va	*	*
8g	.	.	.
!	!LO:TX:a:t=loco.	!	!
8c#J)	(8cc#^<L	.	.
8r	8aa#X 8gg	.	.
4r	8cc#	.	.
.	8eeeJ)	.	.
=119	=119	=119	=119
(<8cc#^>L	4r	.	.
8e	.	.	.
8A#XJ)	(8a#X^<L	.	.
8r	8gg 8ee	.	.
4r	8a#	.	.
.	8ccc#J)	.	.
=120	=120	=120	=120
(8a#X^>L	4r	.	.
8c#	.	.	.
8GJ)	(>8g^<L	.	.
8r	8ee 8cc#	.	.
4r	8g	.	.
*Xped	*	*	*
.	8aa#XJ)	.	.
*clefF4	*	*	*
!!LO:LB:g=original
=121	=121	=121	=121
*	*^	*	*
*ped	*	*	*	*
(8e^>L	(>4r	4.rAyy	.	.
8G	.	.	.	.
8C#J)	8r	.	.	.
8r	(<8c#^>L	4c#	.	.
*Xped	*	*	*	*
4r	8g	.	.	.
.	8eeJ)	8rcyy	.	.
=122	=122	=122	=122	=122
*ped	*	*	*	*
(8e^>L	4r	4.rcyy	.	.
8G	.	.	.	.
8CnJ)	8r	.	.	.
8r	(<8cn^>L	4cn	.	.
4r	8g	.	.	.
*Xped	*	*	*	*
.	8eeJ)	8rdyy	.	.
=123	=123	=123	=123	=123
*ped	*	*	*	*
(8e^>L	4r	4.rByy	.	.
8G	.	.	.	.
8BBJ)	8r	.	.	.
8r	(<8B^>L	4B	.	.
4r	8g	.	.	.
*Xped	*	*	*	*
.	8eeJ)	8rAyy	.	.
=124	=124	=124	=124	=124
*ped	*	*	*	*
(8e^>L	4r	4.rByy	.	.
8G	.	.	.	.
8AA#XJ)	8r	.	.	.
8r	(<8A#X^>L	4A#X	.	.
4r	8g	.	.	.
*Xped	*	*	*	*
.	8eeJ))	8rdyy	.	.
=125	=125	=125	=125	=125
*ped	*	*	*	*
(8eL	(>4r	4.reyy	.	.
8G	.	.	.	.
8C#J)	8r	.	.	.
8r	(<8c#^>L	4c#	.	.
4r	8g	.	.	.
*Xped	*	*	*	*
.	8eeJ)	8rcyy	.	.
=126	=126	=126	=126	=126
*ped	*	*	*	*
(8eL	4r	4.rdyy	.	.
8G	.	.	.	.
8CnJ)	8r	.	.	.
8r	8cn^>L	(<4cn	.	.
*Xped	*	*	*	*
4r	8g	.	.	.
.	8eeJ))	8rcyy	.	.
!!LO:LB:g=original
=127	=127	=127	=127	=127
*ped	*	*	*	*
(8eL	4r	4.rdyy	.	.
8G	.	.	.	.
8BBJ)	8r	.	.	.
8r	8B^>L	(<4B	.	.
4r	8g	.	.	.
*Xped	*	*	*	*
.	8eeJ)	8rdyy	.	.
=128	=128	=128	=128	=128
*ped	*	*	*	*
(8eL	4r	4.rFyy	.	.
8G	.	.	.	.
8AA#XJ)	8r	.	.	.
8r	8A#X^>L	(<4A#X	.	.
4r	8g	.	.	.
*Xped	*	*	*	*
.	8eeJ)	8rAyy	.	.
*	*v	*v	*	*
=129	=129	=129	=129
(>8D^>L< 8EE#X	4r	.	fz
.	.	.	p
8FF#	.	.	.
8BBBJ)	8r	.	.
8rCC	(8E#X<L	.	.
!	!	!	!LO:HP:a
.	.	.	<
4rCC	8F#<	.	.
.	8B<J	.	.
=130	=130	=130	=130
!	!LO:TX:t=P:diminuendolike accent:problem	!	!
(4G 4E	8d^<L	.	.
.	8A#X	.	.
4F# 4D)	8c#	.	.
.	8B	.	.
4r	8d	.	.
.	8f#J	.	[[
=131	=131	=131	=131
(>8D^>L< 8EE#X	8b)	.	fz
8FF#	4r	.	.
8BBBJ)	.	.	.
!	!	!	!LO:HP:a
8rEE	(>8E#X<L	.	<
4rEE	8F#<	.	.
.	8B<J	.	.
=132	=132	=132	=132
(4G 4E	8dL	.	.
.	8A#X	.	.
4F# 4D)	8c#	.	.
.	8B	.	.
4r	8d	.	.
.	8f#J	.	[[
!!LO:LB:g=original
=133	=133	=133	=133
4BB\	8dd)	.	fz
.	8r	.	.
4r	(8eeL	.	<
.	8a#X	.	.
4r	8dd	.	.
.	8bJ	.	.
=134	=134	=134	=134
*	*	*	*^
4d' 4F#	8ggL	.	.	.
.	8cc#	.	.	.
4BB'\	8ff#	.	.	.
!	!LO:TX:t=cres_:problem:dynamics with extention lines	!	!	!
!	!	!	!	!LO:HP:t=cres
.	8dd	.	.	<
4d' 4F#	8ccc#	.	.	.
.	8ee#XJ	.	.	.
=135	=135	=135	=135	=135
4BB'\	8bbL	.	.	.
.	8ff#	.	.	.
4d' 4F#	8eee	.	.	.
.	8aa#X	.	.	.
4BB'\	8ddd	.	.	.
.	8bbJ	.	[[	[
*	*	*	*v	*v
=136	=136	=136	=136
4d 4F#	4bbb'>)	.	fz
4r	4r	.	.
4r	4r	.	.
=137	=137	=137	=137
!	!	!	!LO:DY:rj
(8E^>L< 8FF#	4r	.	fz
8GG	.	.	.
8BBBJ)	8r	.	.
8rGG	(>8A#X<L	.	.
!	!	!	!LO:HP:a
.	.	.	<
4rGG	8B<	.	.
.	8eJ	.	.
=138	=138	=138	=138
(4cn 4A	8g^<L	.	.
.	8d#X	.	.
4B 4G)	8f#	.	.
.	8e	.	.
4r	8g	.	.
.	8bJ	.	.
.	.	.	[
!!LO:LB:g=original
=139	=139	=139	=139
!	!	!	!LO:DY:rj
(>8E^>L< 8FF#	8ee)	.	fz
8GG	4r	.	.
8BBBJ)	.	.	.
!	!	!	!LO:HP:a
8rGG	(8A#X<L	.	<
4rGG	8d 8B<	.	.
.	8eJ	.	.
=140	=140	=140	=140
(4c# 4A	8g^<L	.	.
.	8d#X	.	.
4B 4G)	8f#	.	.
.	8e	.	.
4r	8g	.	.
.	8bJ	.	[[
=141	=141	=141	=141
4BB'\	8gg)	.	.
.	8r	.	.
4r	(8ff#L	.	.
.	8a#X	.	<
4r	8ee	.	.
.	8bJ	.	.
=142	=142	=142	=142
*	*	*	*^
4e' 4G	8aaL	.	.	.
!	!LO:TX:t=cres_:problem:dynamics with extention lines	!	!	!
!	!	!	!	!LO:HP:t=cres
.	8dd#X	.	.	<
4BB'\	8gg	.	.	.
.	8ee	.	.	.
4e' 4G	8cccn	.	.	.
.	8ff#J	.	.	.
=143	=143	=143	=143	=143
4BB'\	8bbL	.	.	.
.	8gg	.	.	.
4e' 4G	8fff#	.	.	.
.	8aa#X	.	.	.
4BB'\	8eee	.	.	.
.	8bbJ	.	[[	[[
*	*	*	*v	*v
=144	=144	=144	=144
*	*8va	*	*
4e 4G	4eeee'>)	.	fz
4r	4r	.	.
4r	4r	.	.
*clefG2	*	*	*
!!LO:PB:g=original
=145	=145	=145	=145
*^	*	*	*
4ff#	2.ee 2.cc# (<2.a#X	(4fff#	.	f
2gg	.	8gggL	.	>
.	.	8fff#	.	.
.	.	8fffn	.	.
.	.	8eeeJ)	.	]
*v	*v	*	*	*
=146	=146	=146	=146
4gg' 4dd 4b)	(>8eeeL	.	>
.	8ddd	.	.
4f#' 4F#	8ccc#	.	]
.	8bb	.	.
4r	8aa	.	.
.	8ggJ	.	.
*	*X8va	*	*
=147	=147	=147	=147
!	!LO:TX:a:t=loco.	!	!
4cc#' 4a	8ff#L	.	>
.	8gg	.	.
4F#'	8ee#X	.	.
.	8ff#	.	]
4b' 4g	8bb	.	.
.	8eenJ	.	.
=148	=148	=148	=148
4a' 4f#	8ddL	.	>
.	8ee	.	.
4F#'	8cc#	.	.
.	8dd	.	]
4g' 4e	8gg	.	.
.	8bJ	.	.
*clefF4	*	*	*
=149	=149	=149	=149
*	*^	*	*
*	*	*^	*	*
4r	8b-XL>	4g	2c#^<\	.	.
.	8ee	.	.	.	.
2F#	8g#X	2rddddyy	.	.	.
.	8a	.	.	.	.
!	!	!	!LO:S:s=1:note:problem:note-level slur	!	!
.	8ff#	.	&(<4f#\ (<4d	.	.
.	8ddJ	.	.	.	.
=150	=150	=150	=150	=150	=150
4r	8b-XL>	4gn&)	2c#^<\)	.	.
.	8ee	.	.	.	.
[2F#	8g#X	2rbbbyy	.	.	.
.	8a	.	.	.	.
!	!	!	!LO:S:s=1:note:problem:note-level slur	!	!
.	8ff#	.	&(<4f#\ (<4d	.	.
.	8ddJ	.	.	.	.
!!LO:LB:g=original
=151	=151	=151	=151	=151	=151
!	!	!LO:TX:b:t=P:brak zakończeń łuków przy 4fn i 2B:problem	!	!	!
4F#]	8a-XL>	4fn&)	2B^<\)	.	.
.	8dd	.	.	.	.
[2F#	8f#X	2rddddyy	.	.	.
.	8g	.	.	.	.
.	8ee	.	[>4e\ (<4c#	.	.
.	8cc#J	.	.	.	.
=152	=152	=152	=152	=152	=152
4F#]	8gL>	4e]	2A#X^<\)	.	.
.	8cc#	.	.	.	.
(2F#	8e#X	2rbbbyy	.	.	.
.	8f#	.	.	.	.
.	8dd	.	N(>4d\ 4B	.	.
.	8bJ	.	.	.	.
*	*v	*v	*v	*	*
=153	=153	=153	=153
!LO:S:s=1:note:problem:note-level slur	!	!	!
8e 8A#X) 8F#N)	8f#`)	.	.
8r	8r	.	.
4FF# 4FFF#	(>8g^<L	.	.
.	8f#	.	.
4r	8fn	.	.
.	8eJ	.	.
=154	=154	=154	=154
4G 4D 4BB	8e^<L	.	.
.	8d	.	.
4FF# 4FFF#	8c#	.	.
.	8B	.	.
4rGG	8A	.	.
.	8GJ	.	.
=155	=155	=155	=155
4C#'< 4AA	8F#<L	.	.
.	8G<	.	.
4FFF#'</	8E#X<	.	.
.	8F#<	.	.
4BB'< 4GG	8B<	.	.
.	8Eny<J	.	.
=156	=156	=156	=156
4AA'< 4FF#	8D<L	.	.
.	8E<	.	.
4FFF#'</	8C#<	.	.
.	8D<	.	.
[<4GG'< 4EE	8G<	.	.
.	8BB<J	.	.
!!LO:LB:g=original
=157	=157	=157	=157
*^	*	*	*
!LO:TX:t=P:2.GG and 2.CC# in the middle of the measure:problem	!	!	!	!LO:DY:b=2:rj
2.GG_	[2.CC#^\	8AA#X<L	.	fz
.	.	8C#<	.	.
.	.	8E<	.	.
.	.	8G<	.	.
.	.	8A#X<	.	.
.	.	8c#<J	.	.
=158	=158	=158	=158	=158
*	*	*	*	*^
!	!	!LO:TX:t=cres_:problem:dynamics with extention lines	!	!	!
!LO:TX:t=P:2.GG in the middle of the measure:problem	!	!	!	!LO:HP:t=cres	!
2.GG_	2CC#]	8d#XL	.	<	.
.	.	8e	.	.	.
.	.	8e#X	.	.	.
.	.	8f#	.	.	.
.	4BBB	8g	.	.	.
.	.	8dnJ	.	.	.
=159	=159	=159	=159	=159	=159
4GG]	4AAA#X	8c#L	.	.	.
.	.	8e	.	.	.
4r	4rGGGyy	8ee 8cc#	.	.	.
.	.	8a#X	.	.	.
4r	4rAAAyy	8g	.	.	.
.	.	8fnJ	.	.	.
*v	*v	*	*	*	*
=160	=160	=160	=160	=160
4r	8eL	.	.	.
.	8e-X	.	.	.
!	!	!	!	!LO:HP:b=2
(4G'	8d	.	.	<
.	8c#	.	.	.
4G')	8cn	.	.	[
.	8BJ	.	.	.
=161	=161	=161	=161	=161
*^	*	*	*	*
!	!	!	!	!	!LO:DY:rj
[2.G	[2.C#	8A#X^<L	.	.	fz
.	.	8c#	.	.	.
.	.	8e	.	.	.
.	.	8g	.	.	.
.	.	8a#X	.	.	.
.	.	8cc#J	.	.	.
=162	=162	=162	=162	=162	=162
2.G_	2C#]	8dd#XL	.	.	.
.	.	8ee	.	.	.
.	.	8ee#X	.	.	.
.	.	8ff#	.	.	.
.	4BB	8gg	.	.	.
.	.	8ddnJ	.	[	.
*	*	*	*	*v	*v
*v	*v	*	*	*
!!LO:LB:g=original
=163	=163	=163	=163
8G 8AA#X	8cc#')	.	.
8r	8r	.	.
4cn' 4Cn	4aa#X' 4gg 4ee 4a#X	.	.
!	!	!	!LO:DY:rj
4B' 4BB	4bb' 4gg 4ee 4b	.	ff
=164	=164	=164	=164
4A#X' (<4AA#X	4ccc#X' 4gg 4ee 4cc#X	.	.
!	!LO:TX:t=ritenuto.	!	!
4G\ 4GG\	4r	.	.
4AA#X 4AAA#X	4r	.	.
=165	=165	=165	=165
!LO:N:vis=2	!	!	!
[<2.BB [2.BBB	2.rdd	.	.
=166	=166	=166	=166
!LO:N:vis=2	!	!	!
2.BB_< 2.BBB_	4r	.	.
.	(>4dd 4g 4d	.	.
.	4g 4d 4G<	.	.
=167	=167	=167	=167
*^	*	*	*
2c#^> 2G	2BB/] 2BBB/]	4f#	.	.
.	.	4e)	.	.
4rcyy	4AA#X/ 4AAA#X/)	4r	.	.
*v	*v	*	*	*
=168	=168	=168	=168
!	!	!	!LO:DY:b=2:rj
(4An 4AAn	2.rdd	.	f
4G\ 4GG\	.	.	.
4AA#X 4AAA#X	.	.	.
=169	=169	=169	=169
[2.BB [2.BBB)	4r	.	.
.	4r	.	.
!	!	!	!LO:DY:rj
.	(>[4ee^>\ 4g\ 4e\	.	fz
=170	=170	=170	=170
2.BB_ 2.BBB_	4ee\] 4g\ 4e\]	.	.
.	4dd 4g 4d	.	.
.	4g 4d 4G<	.	.
!!LO:LB:g=original
=171	=171	=171	=171
*^	*	*	*
N[2.c#^> N[2.G	2.BB] 2.BBB]	2f#	.	.
.	.	[>4e	.	.
*v	*v	*	*	*
=172	=172	=172	=172
4BB 4BBB	2.e]) 2.c#<N] 2.G<N]	.	>
4BB 4BBB	.	.	.
4AA#X 4AAA#X	.	.	.
=173	=173	=173	=173
*^	*	*	*
2.B^ 2.F#	2.BB 2.BBB	(4e	.	.
.	.	4d)	.	.
.	.	4r	.	.
*v	*v	*	*	*
=174	=174	=174	=174
4BB'\ 4BBB\	2.rdd	.	.
(>4BB\ 4BBB\	.	.	.
4AA#X\) 4AAA#X\	.	.	.
=175	=175	=175	=175
*^	*	*	*
2.B^ 2.F#	2.BB 2.BBB	(4e	.	.
.	.	4d)	.	.
.	.	4r	.	.
*v	*v	*	*	*
!	!LO:TX:t=ritenuto.	!	!
=176	=176	=176	=176
(4BB\ 4BBB\	2.rdd	.	.
4C#\ 4CC#\	.	.	.
4D\ 4DD\	.	.	.
=177	=177	=177	=177
2EE 2EEE)	2d^> 2.B< 2.G<	.	.
4ryy	4c#	.	.
=178	=178	=178	=178
!LO:TX:t=P:brak rozpoczęcia ligatury przy 2.e:problem	!	!	!LO:DY:rj
[2.e	[2.ee^<	.	p
!!LO:LB:g=original
=179	=179	=179	=179
2.e_	2.ee_	.	.
=180	=180	=180	=180
*^	*^	*	*
!LO:N:vis=2	!	!LO:N:vis=2	!	!	!
2.e_	4d	2.ee_	4dd	.	.
.	4c#	.	4cc#	.	.
.	4B	.	4b	.	.
=181	=181	=181	=181	=181	=181
!LO:N:vis=2	!	!LO:N:vis=2	!	!	!
2.e]	2.c#	2.ee]	2.cc#	.	.
*ped	*	*	*	*	*
.	.	.	.	.	.
8qG/ 8qGG/	.	8qb/ 8qe/	.	.	.
*v	*v	*	*	*	*
*	*v	*v	*	*
=182	=182	=182	=182
[2.e	[2.ee^>	.	.
=183	=183	=183	=183
2.e_	2.ee_	.	.
*Xped	*	*	*
.	.	.	.
=184	=184	=184	=184
*^	*^	*	*
!LO:N:vis=2	!	!LO:N:vis=2	!	!	!
2.e]	(>4d	(2.ee]	(>4dd	.	.
.	4c#	.	4cc#	.	.
.	4B	.	4b	.	.
*v	*v	*	*	*	*
*	*v	*v	*	*
=185	=185	=185	=185
[2.F#)	[2.cc# [2.a#X [2.f# [2.e)	.	.
=186	=186	=186	=186
(<2.F#_	2.cc#] 2.a#X] 2.f#] 2.e]	.	.
=187	=187	=187	=187
4F#] 4BB)	4b 4f# 4d)	.	.
4r	4r	.	.
4r	4r	.	.
=188	=188	=188	=188
!LO:TX:a:t=1	!LO:TX:a:t=1	!	!
2.rF	2.rdd	.	.
=189	=189	=189	=189
!	!LO:TX:a:t=agitato.	!	!
!	!LO:TX:t=sotto voce.	!	!
(8DL< 8FF#X	4r	.	.
8GG	.	.	.
8BBB-XJ)	8r	.	.
8rCC	(8D<L	.	.
4rCC	8G<	.	.
.	8d<J	.	.
=190	=190	=190	=190
(8AAAL<	4.e^>)	.	.
8GG	.	.	.
8C#J)	.	.	.
8rCC	(8G<L	.	.
4rCC	8A<	.	.
.	8G<J)	.	.
!!LO:PB:g=original
=191	=191	=191	=191
(8F#^>L< 8GG#X	4r	.	.
8AA	.	.	.
8DDJ)	(<8F#<L	.	.
8rCC	8A<	.	.
4rCC	8f#	.	.
.	8f#J	.	.
=192	=192	=192	=192
2.rF	8ff#)	.	.
.	8r	.	.
.	4r	.	.
.	4r	.	.
=193	=193	=193	=193
!	!LO:TX:t=cres_:problem:dynamics with extention lines	!	!
!	!	!	!LO:HP:t=cres
(>8F#^>L< 8AA#X	4r	.	<
8BB	.	.	.
8DDJ)	8r	.	.
8rGG	(8F#<L	.	.
4rGG	8B<	.	.
.	8f#J	.	.
=194	=194	=194	=194
(>8CC#L<	4.g#X^>)	.	.
8BB	.	.	.
8E#XJ)	.	.	.
8rAA	8B<L	.	.
4rAA	8c#<	.	.
.	8B<J	.	.
=195	=195	=195	=195
(8A^>L< 8BB#X	4r	.	.
8C#	.	.	.
8FF#J)	(<8A<L	.	.
8rAA	8c#	.	.
4rAA	8a	.	.
.	8aJ	.	.
=196	=196	=196	=196
2.rF	8aa'>)	.	[
.	8r	.	.
.	4r	.	.
.	4r	.	.
=197	=197	=197	=197
(8AL< 8C#X	4r	.	.
8D	.	.	.
8FFnJ)	8r	.	.
8r	(>8A<L	.	.
!	!LO:TX:t=cres_:problem:dynamics with extention lines	!	!
!	!	!	!LO:HP:t=cres
4r	8d	.	<
.	8aJ	.	.
!!LO:LB:g=original
=198	=198	=198	=198
(8EEL<	(4.b^>/)	.	.
8D	.	.	.
8G#XJ)	.	.	.
8r	8dL	.	.
4r	8e	.	.
.	8dJ)	.	[
=199	=199	=199	=199
(>8c#XL 8D#X	4r	.	.
8E	.	.	.
8AAJ)	8r	.	.
8r	(8c#L	.	.
4r	8e	.	.
.	[8cc#J)	.	.
=200	=200	=200	=200
!	!LO:TX:t=dim_:problem:dynamics with extention lines	!	!
!	!	!	!LO:HP:t=dim
(8c#^>L< 8C##X	4cc#/]	.	>
8D#X	.	.	.
8AAnJ)	8r	.	.
8r	(8c#L	.	.
4r	8f##X	.	.
.	[8dd#XJ)	.	.
=201	=201	=201	=201
(8B#X^>L< 8C##X	4dd#X/]	.	.
.	.	.	]
8D#X	.	.	.
8GG#XJ)	8r	.	.
8r	(<8B#XL	.	.
4r	8g#X	.	.
.	[8b#XJ)	.	.
=202	=202	=202	=202
(>8cnL< 8C#X	4b#X/]	.	.
8Dn	.	.	.
8AA-XJ)	8r	.	.
8r	(8cnL	.	.
4r	8f#X	.	.
.	[8ddnJ)	.	.
=203	=203	=203	=203
(8BL< 8C#X	4dd/]	.	.
8D	.	.	.
8GGJ)	8r	.	.
8r	(<8BL	.	.
4r	8g	.	.
.	[8bJ)	.	.
=204	=204	=204	=204
(8BnL< 8BB#X	4b/]	.	.
8C#	.	.	.
8GGnJ)	8r	.	.
8r	(8BL	.	.
4r	8e#X	.	.
.	[8cc#J)	.	.
!!LO:LB:g=original
=205	=205	=205	=205
*ped	*	*	*
!	!LO:TX:t=poco-a-poco-cres_:problem:dynamics with extention lines	!	!
!	!	!	!LO:HP:t=poco-a-poco-cres
(8A#XL<	4.cc#/]	.	<
8C#	.	.	.
8FF#J)	.	.	.
8r	(<8A#X<L	.	.
4r	8f#	.	.
*Xped	*	*	*
.	[8cc#J)	.	.
=206	=206	=206	=206
(8c#L	4.cc#/])	.	.
8F#	.	.	.
8AA#XJ)	.	.	.
8r	(8c#L	.	.
4r	8a#X	.	.
*Xped	*	*	*
.	8ff#J)	.	.
=207	=207	=207	=207
*ped	*	*	*
(>8dL	4r	.	.
8F#	.	.	.
8GG#XJ)	8r	.	.
8r	(8dL	.	.
4r	8b	.	.
*Xped	*	*	*
.	8ff#J)	.	.
=208	=208	=208	=208
*ped	*	*	*
(>8e#XL	4r	.	.
8B	.	.	.
8C#J)	8r	.	.
8r	(8e#XL>	.	.
4r	8b	.	.
*Xped	*	*	*
.	8gg#iJ)	.	.
=209	=209	=209	=209
*ped	*	*	*
(8g#X>L	4rff	.	.
8A#X	.	.	.
8EJ)	8rff	.	.
8r	(<8g#L>	.	.
4r	8cc#	.	.
*Xped	*	*	*
.	8aa#XJ)	.	.
=210	=210	=210	=210
*ped	*	*	*
(8f##X>L	4rdd	.	.
8A#X	.	.	.
8D#XJ)	8rdd	.	.
8r	(8f##L>	.	.
4r	8dd#X	.	.
*Xped	*	*	*
.	8aa#yJ)	.	.
=211	=211	=211	=211
*ped	*	*	*
(8b>L	4rff	.	.
8d#X>	.	.	.
8G#XJ)	8rff	.	.
8r	(<8g#yL>	.	.
4r	8dd#y	.	.
*Xped	*	*	*
.	.	.	.
.	8bbJ)	.	.
!!LO:LB:g=original
=212	=212	=212	=212
*ped	*	*	*
(8e#X>L	4rdd	.	.
8B	.	.	.
8C#J)	8rdd	.	.
8r	(<8e#L>	.	.
4r	8b	.	.
*Xped	*	*	*
.	8gg#XJ)	.	.
=213	=213	=213	=213
*ped	*	*	*
(8a#X>L	4rff	.	.
8c#	.	.	.
8F#J)	8rff	.	.
8r	(<8f#L>	.	.
4r	8a#	.	.
*Xped	*	*	*
.	8ff#J)	.	.
*clefG2	*	*	*
=214	=214	=214	=214
*	*^	*	*
*ped	*	*	*	*
(8cc#^>L 8f#	2rcccyy	4r	.	.
8A#XJ)	.	.	.	.
*	*	*8va	*	*
4r	.	(8fff#L	.	.
.	.	8aa#X	.	.
4r	4fff#	8fff#	.	.
*Xped	*	*	*	*
.	.	8ff#J)	.	.
=215	=215	=215	=215	=215
*ped	*	*	*	*
(8dd^>L 8f#	2reeeyy	4r	.	.
8G#XJ)	.	.	.	.
4r	.	(8fff#L	.	.
.	.	8bb	.	.
4r	4fff#	8fff#	.	.
*Xped	*	*	*	*
.	.	8ff#J)	.	.
=216	=216	=216	=216	=216
*ped	*	*	*	*
(8ee#X^>L 8b 8g#X	2reeeyy	4r	.	.
8c#J)	.	.	.	.
4r	.	(8ggg#XL	.	.
.	.	8ccc#	.	.
4ryy	4ggg#	8ggg#	.	.
*Xped	*	*	*	*
.	.	8bbJ)	.	.
*	*v	*v	*	*
=217	=217	=217	=217
*ped	*	*	*
(8gg#X^>L 8cc# 8a#X	4r	.	.
8enJ)	.	.	.
4r	(8aaa#XL	.	.
.	8ccc#	.	.
4r	8aaa#	.	[
*Xped	*	*	*
.	8gg#XJ)	.	.
!!LO:LB:g=original
=218	=218	=218	=218
*ped	*	*	*
(8ff##X^>L 8cc# 8a#X	4r	.	.
8d#XJ)	.	.	.
4r	(8aaa#XL	.	.
.	8ccc#	.	.
4r	8aaa#	.	.
*Xped	*	*	*
.	8ff##XJ)	.	.
=219	=219	=219	=219
*ped	*	*	*
(8ff#^>L 8b 8f#	4r	.	.
8dnJ)	.	.	.
4r	(>8bbbL	.	.
.	8ddd	.	.
4r	8bbb	.	.
*Xped	*	*	*
.	8ff#J)	.	.
=220	=220	=220	=220
*ped	*	*	*
(8ee#X^>L 8b 8g#X	4r	.	.
8c#J)	.	.	.
4r	(8ggg#XL	.	.
.	8bb	.	.
4r	8ggg#	.	.
*Xped	*	*	*
.	8ee#XJ)	.	.
=221	=221	=221	=221
*ped	*	*	*
(8a#X^>L 8f# 8c#	4r	.	.
8F#J)	.	.	ff
4r	(8fff#^<L 8ccc#	.	.
.	8aa#X	.	.
4r	8fff# 8ccc#	.	.
*Xped	*	*	*
.	8ff#J)	.	.
=222	=222	=222	=222
*ped	*	*	*
(8b^>L 8d	4r	.	.
8F#J)	.	.	.
4r	(8ggg^<L 8ddd	.	.
.	8bb	.	.
4r	8ggg 8ddd	.	.
*Xped	*	*	*
.	8ggJ)	.	.
=223	=223	=223	=223
*ped	*	*	*
(8a#X^>L 8c#	4r	.	.
8F#J)	.	.	.
!	!LO:TX:a:t=sempre-piu-animato:dur=6q:ext=ud:problem:text with extention lines	!	!
4r	(8fff#^<L 8ccc#	.	.
.	8aa#X	.	.
*Xped	*	*	*
4r	8fff# 8ccc#	.	.
.	8ff#J)	.	.
!!LO:LB:g=original
=224	=224	=224	=224
*ped	*	*	*
(8an^>L 8cn	4r	.	.
8F#J)	.	.	.
4r	(8fffn^<L 8cccn	.	.
.	8aan	.	.
4r	8fff 8ccc	.	.
*Xped	*	*	*
.	8ffnJ)	.	.
=225	=225	=225	=225
*ped	*	*	*
(8g#X^>L 8B	4r	.	.
8F#J)	.	.	.
4r	(8eee^<L< 8bb	.	.
.	8gg#X	.	.
4r	8eee 8bb	.	.
*Xped	*	*	*
.	8eeJ)	.	.
=226	=226	=226	=226
*ped	*	*	*
(8a^>L 8cn	4r	.	.
8F#XJ)	.	.	.
4r	(8fffn^<L 8cccn	.	.
.	8aa	.	.
4r	8fff 8ccc	.	.
.	8ffnyJ)	.	.
*Xped	*	*	*
.	.	.	.
=227	=227	=227	=227
*ped	*	*	*
(8g#X^>L 8B	4r	.	.
8F#J)	.	.	.
4r	(8eee^<L< 8bb	.	.
.	8gg#X	.	.
4r	8eee 8bb	.	.
*Xped	*	*	*
.	8eeJ)	.	.
=228	=228	=228	=228
*ped	*	*	*
(8gn^>L 8B	4r	.	.
8F#J)	.	.	.
4r	(8eee^<L< 8bb	.	.
.	8ggn	.	.
4r	8eee 8bb	.	.
*Xped	*	*	*
.	8eeJ)	.	.
=229	=229	=229	=229
*ped	*	*	*
!	!	!	!LO:DY:rj
4e 4c# 4F#	4eee\ 4ccc#\ 4aa#X\ 4gg\ 4ee\	.	fz
4r	4r	.	.
4r	4r	.	.
!!LO:PB:g=original
=230	=230	=230	=230
*ped	*	*	*
(8eee^<L	4r	.	fff
8gg	.	.	.
8cc#J)	(8ccc#^<L	.	.
8r	8aaa#X 8ggg	.	.
4r	8ccc#	.	.
.	8eeeeJ)	.	.
=231	=231	=231	=231
(8ccc#^<L	4r	.	.
8ee	.	.	.
8a#XJ)	(8aa#X^<L	.	.
8r	8ggg 8eee	.	.
4r	8aa#	.	.
.	8cccc#J)	.	.
=232	=232	=232	=232
(>8aa#X^<L	4r	.	.
8cc#	.	.	.
8gJ)	(8gg^<L	.	.
8r	8eee 8ccc#X	.	.
4r	8gg	.	.
.	8aaa#XJ)	.	.
=233	=233	=233	=233
(8gg^<L	4r	.	.
8a#X	.	.	.
8eJ)	(8eeL<	.	.
8r	8ccc# 8aa#X	.	.
4r	8ee	.	.
.	8gggJ)	.	.
=234	=234	=234	=234
(8ee^<L<	4r	.	.
*	*X8va	*	*
8g	.	.	.
!	!LO:TX:a:t=loco.	!	!
.	.	.	.
8c#J)	(8cc#L	.	.
8r	8aa#X 8gg	.	.
4r	8cc#	.	.
.	8eeeJ)	.	.
=235	=235	=235	=235
(8cc#^<L<	4r	.	.
8e	.	.	.
8A#XJ)	(8a#XL	.	.
8r	8gg 8ee	.	.
4r	8a#	.	.
.	8ccc#J)	.	.
!!LO:LB:g=original
=236	=236	=236	=236
(8a#X^>L	4r	.	.
8c#	.	.	.
8GJ)	(8g^<L	.	.
8r	8ee 8cc#	.	.
4r	8g	.	.
*Xped	*	*	*
.	8aa#XJ)	.	.
*clefF4	*	*	*
=237	=237	=237	=237
*	*^	*	*
*ped	*	*	*	*
(8e^L	&(>4r	4.rcyy	.	.
8G	.	.	.	.
8C#J)	8r	.	.	.
8r	8c#^>L	(<4c#	.	.
4r	8g	.	.	.
*Xped	*	*	*	*
.	8eeJ)	8rByy	.	.
=238	=238	=238	=238	=238
*ped	*	*	*	*
(8e^>L	4r	4.rdyy	.	.
8G	.	.	.	.
8CnJ)	8r	.	.	.
8ryy	(<8cn^>L	4cn	.	.
4ryy	8g	.	.	.
*Xped	*	*	*	*
.	8eeJ)	8rByy	.	.
=239	=239	=239	=239	=239
*ped	*	*	*	*
(8e^>L	4r	4.rdyy	.	.
8G	.	.	.	.
8BBJ)	8r	.	.	.
8r	8B^L	(<4B	.	.
4r	8g	.	.	.
*Xped	*	*	*	*
.	8eeJ)	8rAyy	.	.
=240	=240	=240	=240	=240
*ped	*	*	*	*
(8e^>L	4r	4.rdyy	.	.
8G	.	.	.	.
8AA#XJ)	8r	.	.	.
8r	8A#X^>L	(<4A#X	.	.
4r	8g	.	.	.
*Xped	*	*	*	*
.	8eeJ)&)	8rAyy	.	.
=241	=241	=241	=241	=241
*ped	*	*	*	*
(8eL	&(>4r	4.rdyy	.	.
8G	.	.	.	.
8C#J)	8r	.	.	.
8r	8c#^L	(<4c#	.	.
4r	8g	.	.	.
.	8eeJ)	8rByy	.	.
!!LO:LB:g=original
=242	=242	=242	=242	=242
*ped	*	*	*	*
(8eL	4r	4.rGyy	.	.
8G	.	.	.	.
8CnJ)	8r	.	.	.
8r	8cny^>L	(<4cny	.	.
4r	8g	.	.	.
*Xped	*	*	*	*
.	8eeJ)	8rByy	.	.
=243	=243	=243	=243	=243
*ped	*	*	*	*
(8eL	4r	4.rByy	.	.
8G	.	.	.	.
8AAJ)	8r	.	.	.
8r	8B^>L	(<4B	.	.
*Xped	*	*	*	*
4r	8g	.	.	.
.	8eeJ)	8rGyy	.	.
=244	=244	=244	=244	=244
*ped	*	*	*	*
(8eL	4r	4.rFyy	.	.
8G	.	.	.	.
8AA#XJ)	8r	.	.	.
8r	(<8A#X^>L	4A#X	.	.
*Xped	*	*	*	*
4r	8g	.	.	.
.	8eeJ)&)	8rAyy	.	.
*	*v	*v	*	*
=245	=245	=245	=245
*	*	*	*^
!LO:TX:t=P:diminuendolike accent:problem	!	!	!LO:DY:rj	!
(>8D^>L< 8EE#X	4r	.	fz	p
8FF#	.	.	.	.
8BBBJ)	8r	.	.	.
!	!	!	!LO:HP:a	!
8rCC	(>8E#X<L	.	<	.
4rCC	8F#<	.	.	.
.	8B<J	.	.	.
*	*	*	*v	*v
=246	=246	=246	=246
(4G^< 4E	8dL	.	.
.	8A#X	.	.
4F# 4D)	8c#	.	.
.	8B	.	.
4r	8d	.	.
.	8f#J	.	[[
=247	=247	=247	=247
(8DL< 8EE#X	8b/)	.	.
8FF#	4r	.	.
8BBBJ)	.	.	.
!	!	!	!LO:HP:a
8rCC	(>8E#X<L	.	<
4rCC	8F#<	.	.
.	8B<J	.	.
=248	=248	=248	=248
(4G^< 4E	8dL	.	.
.	8A#X	.	.
4F# 4D)	8c#	.	.
.	8B	.	.
4r	8d	.	.
.	8f#J	.	[
!!LO:LB:g=original
=249	=249	=249	=249
4BB'\	8dd)	.	.
.	8r	.	.
4r	(8eeL	.	<
.	8a#X	.	.
4r	8dd	.	.
.	8bJ	.	.
=250	=250	=250	=250
*	*	*	*^
4d 4F#	8ggL	.	.	.
.	8cc#	.	.	.
4BB\	8ff#	.	.	.
.	8dd	.	.	.
4d 4F#	8ccc#	.	.	<
.	8ee#XJ	.	.	.
=251	=251	=251	=251	=251
4BB\	8bbL	.	.	.
.	8ff#	.	.	.
4d 4F#	8eee	.	.	.
.	8aa#X	.	.	.
4BB\	8ddd	.	.	.
.	8bbJ	.	.	.
=252	=252	=252	=252	=252
4d 4F#	4bbb'>)	.	[	.
4r	4r	.	.	.
4r	4r	.	.	.
*	*	*	*v	*v
=253	=253	=253	=253
!LO:TX:t=P:diminuendolike accent:problem	!	!	!LO:DY:rj
(8E^>L< 8FF#	4r	.	fz
8GG	.	.	.
8BBBJ)	8r	.	.
!	!	!	!LO:HP:a
8rCC	(>8A#X<L	.	<
4rCC	8B<	.	.
.	8eJ	.	.
=254	=254	=254	=254
(4cn^< 4A	8gL	.	.
.	8d#X	.	.
4B 4G)	8f#	.	.
.	8e	.	.
4r	8g	.	.
.	8bJ	.	[
!!LO:LB:g=original
=255	=255	=255	=255
(8EL< 8FF#	8ee)	.	.
8GG	4r	.	.
8BBBJ)	.	.	.
!	!	!	!LO:HP:a
8rCC	(>8A#X<L	.	<
4rCC	8B<	.	.
.	8eJ	.	.
=256	=256	=256	=256
(4cn 4A	8gL	.	.
.	8c#X	.	.
4B 4G)	8f#	.	.
.	8e	.	.
4r	8g	.	.
.	8bJ	.	.
=257	=257	=257	=257
4BB'\	8gg)	.	[
.	8r	.	.
4r	(8ff#L	.	<
.	8a#X	.	.
4r	8ee	.	.
.	8bJ	.	.
=258	=258	=258	=258
*	*	*	*^
4e 4G	8aaL	.	.	.
.	8dd#X	.	.	.
4BB\	8gg	.	.	.
.	8ee	.	.	<
4e 4G	8cccn	.	.	.
.	8ff#J	.	.	.
=259	=259	=259	=259	=259
4BB\	8bbL	.	.	.
.	8gg	.	.	.
4e 4G	8fff#	.	.	.
.	8aa#X	.	.	.
4BB\	8eee	.	.	.
.	8bbJ	.	[	.
*	*	*	*v	*v
=260	=260	=260	=260
*	*8va	*	*
4e 4G	4eeee'>)	.	fz
4r	4r	.	.
4r	4r	.	.
*clefG2	*	*	*
!!LO:LB:g=original
=261	=261	=261	=261
*^	*	*	*
!	!	!	!	!LO:DY:rj
4ff#	2.ee 2.cc# (<2.a#X	(>4fff#	.	f
2gg	.	8gggL	.	>
.	.	8fff#	.	.
.	.	8fffn	.	.
.	.	8eeeJ)	.	]
*v	*v	*	*	*
=262	=262	=262	=262
4gg 4dd 4b)	&&(>8eeeL	.	>
.	8ddd	.	.
4f# 4F#	8ccc#	.	.
.	8bb	.	.
4r	8aa	.	]
.	8ggJ	.	.
*	*X8va	*	*
=263	=263	=263	=263
!	!LO:TX:a:t=loco.	!	!
4cc#' 4a	8ff#L	.	>
.	8gg	.	.
4F#'	8ee#X	.	.
.	8ff#	.	]
4b'\ 4g\	8bb	.	.
.	8eenJ	.	.
=264	=264	=264	=264
4a'\ 4f#\	8ddL	.	>
.	8ee	.	.
4F#'	8cc#X	.	.
.	8dd	.	.
[4g\ 4e\	8gg	.	]
.	8bJ	.	.
=265	=265	=265	=265
*^	*	*	*
*	*^	*	*	*
!	!	!	!LO:TX:t=P:diminuendolike accent:problem	!	!
4g\]	2c#	4ryy	8b-X^<L>	.	.
.	.	.	8ee	.	.
4ryy	.	2F#	8g#X	.	.
.	.	.	8a	.	.
4f#/ 4d/	4ryy	.	8ff#	.	.
.	.	.	8ddJ	.	.
*clefF4	*	*	*	*	*
*	*v	*v	*	*	*
*v	*v	*	*	*
=266	=266	=266	=266
*^	*	*	*
*	*	*^	*	*
2c#/	4rAA	8b-XL	4g^<\	.	.
.	.	8ee	.	.	.
.	[>2F#\	8g#X	4ryy	.	.
.	.	8a	.	.	.
!	!	!	!LO:S:s=1:note:problem:note-level slur	!	!
4ryy	.	8ff#	&(<4f#\ (<4d	.	.
.	.	8ddJ	.	.	.
*	*	*v	*v	*	*
*v	*v	*	*	*
!!LO:PB:g=original
=267	=267	=267	=267
*	*^	*	*
*	*	*^	*	*
!	!	!LO:TX:t=P:brak zakończeń łuków przy 4fn i 2B:problem	!	!	!
4F#]	8a-XL>	4fn&)	2B^<\)	.	.
.	8dd	.	.	.	.
[2F#	8f#X	2rddddyy	.	.	.
.	8g	.	.	.	.
.	8ee	.	[4e\ (<4c#	.	.
.	8cc#J	.	.	.	.
=268	=268	=268	=268	=268	=268
4F#]	8gL>	4e]	2A#X^<\)	.	.
.	8cc#	.	.	.	.
[2F#	8e#X	2rbbbyy	.	.	.
.	8f#	.	.	.	.
.	8dd	.	N(>4d\ 4B	.	.
.	8bJ&&)	.	.	.	.
*	*v	*v	*v	*	*
=269	=269	=269	=269
8e 8A#X 8F#]N)	8f#	.	.
8r	8r	.	.
4FF#^> 4FFF#	(>8g^<L	.	fz
.	8f#	.	.
4r	8fn	.	.
.	8eJ	.	.
=270	=270	=270	=270
4G'> 4D 4BB	8e^<L	.	.
.	8d	.	.
4FF#'< 4FFF#	8c#	.	.
.	8B	.	.
4rGG	8A<	.	.
.	8G<J	.	.
=271	=271	=271	=271
4C# 4AA	8F#<L	.	.
.	8G<	.	.
4FFF#'/	8E#X<	.	.
.	8F#<	.	.
4BB 4GG	8B<	.	.
.	8En<J	.	.
=272	=272	=272	=272
4AA 4FF#	8D<L	.	.
.	8E<	.	.
4FFF#'/	8C#<	.	.
.	8D<	.	.
[<4GG 4EE	8G<	.	.
.	8BB<J	.	.
!!LO:LB:g=original
=273	=273	=273	=273
*^	*	*	*
!LO:TX:t=P:2.GG and 2.CC# in the middle of the measure:problem	!	!	!	!
2.GG_	[2.CC#\	8AA#X<L	.	.
.	.	8C#<	.	.
.	.	8E<	.	.
.	.	8G<	.	.
.	.	8A#X<	.	.
.	.	8c#<J	.	.
=274	=274	=274	=274	=274
!LO:TX:t=P:2.GG in the middle of the measure:problem	!	!	!	!
2.GG_	2CC#]	8d#XL	.	.
!	!	!LO:TX:t=cres_:problem:dynamics with extention lines	!	!
!	!	!	!	!LO:HP:t=cres
.	.	8e	.	<
.	.	8e#X	.	.
.	.	8f#	.	.
.	4BBB	8g	.	.
.	.	8dnJ	.	.
=275	=275	=275	=275	=275
4GG]	4AAA#X	8c#L	.	.
.	.	8e	.	.
4r	2rAAAyy	8ee^> 8cc#	.	.
.	.	8a#X	.	.
4r	.	8g	.	.
.	.	8fnJ	.	.
*v	*v	*	*	*
=276	=276	=276	=276
*	*	*	*^
4r	8eL	.	.	.
.	8e-X	.	.	.
!	!	!	!	!LO:HP:b=2
(4G'	8d	.	.	<
.	8c#	.	.	.
4G')	8cn	.	.	[
.	8BJ	.	.	.
*	*	*	*v	*v
=277	=277	=277	=277
*^	*	*	*
[2.G	[2.C#	8A#XL	.	.
.	.	8c#	.	.
.	.	8e	.	.
.	.	8g	.	.
.	.	8a#X	.	.
.	.	8cc#J	.	.
=278	=278	=278	=278	=278
2.G_	2C#]	8dd#XL	.	.
.	.	8ee	.	.
.	.	8ee#X	.	.
.	.	8ff#	.	.
.	4BB	8gg	.	.
.	.	8ddnJ	.	[[
!!LO:LB:g=original
=279	=279	=279	=279	=279
8G]	8AA#X	8cc#)	.	.
8rcyy	8r	8r	.	.
2rgyy	4cn'> 4Cn	4aa#X'> 4gg 4ee 4a#X	.	.
.	.	.	.	ff
.	4B'> 4BB	4bb'> 4gg 4ee 4b	.	.
*v	*v	*	*	*
=280	=280	=280	=280
4A#X 4AA#y	4ccc#X'> 4gg 4ee 4cc#X	.	.
!	!LO:TX:a:t=ritenuto.	!	!
(4G 4GG	4r	.	p
4AA#X 4AAA#X	4r	.	.
=281	=281	=281	=281
[<2.BB^ [2.BBB)	2.rdd	.	]
=282	=282	=282	=282
2.BB] 2.BBB])	4r	.	.
.	(>4dd 4g 4d	.	.
.	4g 4d 4G<	.	.
=283	=283	=283	=283
*^	*	*	*
2c#^> 2G	2AA#X 2AAA#X)	4f#	.	.
.	.	4e)	.	.
!	!	!	!	!LO:DY:b=2
4reyy	(>4An 4AAn	4r	.	f
*v	*v	*	*	*
=284	=284	=284	=284
4G#X\ 4GG#X\	2.rdd	.	.
4Gn\ 4GGn\	.	.	.
4AA#X 4AAA#X)	.	.	.
=285	=285	=285	=285
[<2.BB [2.BBB	4r	.	.
.	4r	.	.
!	!	!	!LO:DY:rj
.	(>4ee^< 4g 4e	.	f
!!LO:LB:g=original
=286	=286	=286	=286
2.BB\_< 2.BBB\_	4ee-X 4g 4e-X	.	.
.	4dd 4g 4d	.	.
.	4g 4d 4G<	.	]
=287	=287	=287	=287
*^	*	*	*
N[2.c# N[2.G	2.BB] 2.BBB]	2f#	.	.
.	.	[>4e)	.	.
*v	*v	*	*	*
=288	=288	=288	=288
4BB] 4BBB	2.e] 2.c#<N] 2.G<N]	.	>
(4BB 4BBB	.	.	.
4AA#X 4AAA#X	.	.	.
=289	=289	=289	=289
*^	*	*	*
2B^> 2F#	2.BB 2.BBB)	(4e	.	.
.	.	4d)	.	.
4rByy	.	4r	.	.
*v	*v	*	*	*
=290	=290	=290	=290
4BB'>\ 4BBB\	2.rdd	.	.
(4BB\ 4BBB\	.	.	.
4AA#X\ 4AAA#X\	.	.	.
=291	=291	=291	=291
*^	*	*	*
2B^> 2F#	2.BB 2.BBB)	(4e	.	.
.	.	4d)	.	.
4rcyy	.	4r	.	.
*v	*v	*	*	*
=292	=292	=292	=292
(4BB\ 4BBB\	2.rdd	.	.
4C#\ 4CC#\	.	.	.
4D\ 4DD\)	.	.	.
!!LO:LB:g=original
=293	=293	=293	=293
*^	*	*	*
2.B 2.G	2.EE/ 2.EEE/	(2d^>	.	.
.	.	4c#)	.	.
*v	*v	*	*	*
=294	=294	=294	=294
!	!	!	!LO:DY:rj
[2.e	([2.ee^>	.	p
=295	=295	=295	=295
2.e_	2.ee_	.	.
=296	=296	=296	=296
*^	*^	*	*
2.e_	4d	2.ee_	4dd	.	.
.	4c#	.	4cc#	.	.
.	4d 4B	.	4b	.	.
=297	=297	=297	=297	=297	=297
!LO:N:vis=2	!	!LO:N:vis=2	!	!	!
2.e]	2.c#	2.ee]	2.cc#	.	.
*ped	*	*	*	*	*
.	.	.	.	.	.
(<8qG 8qGG/	.	(<8qb 8qe/)	.	.	.
*v	*v	*	*	*	*
*	*v	*v	*	*
=298	=298	=298	=298
[2.e)	(>[2.ee)	.	.
=299	=299	=299	=299
2.e_	2.ee_	.	.
*Xped	*	*	*
.	.	.	.
=300	=300	=300	=300
*^	*^	*	*
[2.e]	4d	2.ee_	4dd	.	.
.	4c#	.	4cc#	.	.
.	4B	.	4b	.	.
!!LO:LB:g=original
=301	=301	=301	=301	=301	=301
!	!	!LO:N:vis=2	!	!	!
2e]	2c#	2.ee])	2.cc#	.	.
4rgyy	4r	.	.	.	.
*ped	*	*	*	*	*
.	.	.	.	.	.
(<8qG 8qGG/	.	(<8qb 8qe/	.	.	.
*	*	*v	*v	*	*
*v	*v	*	*	*
=302	=302	=302	=302
!	!LO:TX:t=ca-lan-do.:dur=18q:ext=ud:problem:text with extention lines	!	!
(2.e^<)	(2.ee^>)	.	.
=303	=303	=303	=303
4c#)	2.cc#)	.	.
*Xped	*	*	*
.	.	.	.
4r	.	.	.
4r	.	.	.
*ped	*	*	*
.	.	.	.
(<8qG 8qGG/	(<8qb 8qe#/	.	.
=304	=304	=304	=304
(2.e#y^<)	(2.ee#X^>)	.	.
=305	=305	=305	=305
4c# 4B)	2.cc#)	.	.
*Xped	*	*	*
.	.	.	.
4r	.	.	.
4r	.	.	.
*ped	*	*	*
.	.	.	.
(<8qF# 8qFF#/	(<8qb 8qe/	.	.
=306	=306	=306	=306
(2.f#^<)	(2.ff#)	.	.
=307	=307	=307	=307
4e 4c#)	2.cc#)	.	.
*Xped	*	*	*
.	.	.	.
4r	.	.	.
4r	.	.	.
*ped	*	*	*
.	.	.	.
(<8qF# 8qFF#/	(<8qa# 8qe/	.	.
=308	=308	=308	=308
2.f#^<)	2.ff#^>)	.	.
*Xped	*	*	*
.	.	.	.
!!LO:PB:g=original
=309	=309	=309	=309
*k[f#c#g#d#a#]	*k[f#c#g#d#a#]	*	*
!!!OMD: Molto piu lento [quarter]= 108.
*ped	*	*	*
(>8BBBL<	(>8d#L	.	<
8F#	8ff#	.	.
8B	8d#	.	.
!	!LO:TX:t=sotto voce e ben legato.	!	!
8BBJ	8ff#J	.	.
4F#	4d#	.	.
*Xped	*	*	*
.	.	.	.
=310	=310	=310	=310
*ped	*	*	*
8BBBL<	8eL>	.	.
8F#	8ff#	.	.
8B	8e	.	.
8BBJ	8ff#J	.	.
4F#	4d#	.	.
*Xped	*	*	*
.	.	.	[
=311	=311	=311	=311
*ped	*	*	*
8BBBL<	8c#L	.	.
8F#	8ff#	.	.
8A#	8c#	.	.
.	.	.	.
8BBJ	8ff#J	.	<
*Xped	*	*	*
4F#	4e	.	.
.	.	.	[
=312	=312	=312	=312
*ped	*	*	*
8BBBL<	8g#L>	.	.
8F#	8ff#	.	.
8A#	8g#	.	.
.	.	.	>
8BBJ	8ff#J	.	.
*Xped	*	*	*
4F#	4f#	.	.
.	.	.	]
=313	=313	=313	=313
*ped	*	*	*
8BBBL<	8d#L	.	<
8F#	8ff#	.	.
8B	8d#	.	.
8BBJ	8ff#J	.	.
*Xped	*	*	*
4F#	[4d#	.	.
=314	=314	=314	=314
*ped	*	*	*
8BBB#XL<	8d#L>]	.	.
8G#	8ff#	.	.
8d#	8f#	.	.
.	.	.	[
8BB#XJ	8ff#J	.	.
4G#	4gg#	.	.
*Xped	*	*	*
.	.	.	.
!!LO:LB:g=original
=315	=315	=315	=315
*ped	*	*	*
8CC#L	8f#L>	.	>
8A#	8aa#	.	.
8c#	8f#	.	.
8C#J	8gg#J	.	.
*Xped	*	*	*
4B	4e#X	.	.
=316	=316	=316	=316
*ped	*	*	*
8FF#L<	8f#L>	.	.
8C#	8ff#	.	.
8A#	8f#	.	.
8FF#J	8ff#J	.	.
*Xped	*	*	*
4A#	4en^>	.	]
=317	=317	=317	=317
*ped	*	*	*
8BBBL<	8d#L	.	<
8F#	8ff#	.	.
8B	8d#	.	.
8BBJ	8ff#J	.	.
*Xped	*	*	*
4F#	4d#	.	[
=318	=318	=318	=318
*ped	*	*	*
8BBBL<	8eL>	.	>
8F#	8ff#	.	.
8B	8e	.	.
8BBJ	8ff#J	.	.
*Xped	*	*	*
4F#	4d#	.	]
=319	=319	=319	=319
*ped	*	*	*
8BBBL<	8c#L	.	<
8F#	8ff#	.	.
8A#	8c#	.	.
8BBJ	8ff#J	.	.
*Xped	*	*	*
4F#	4e	.	.
.	.	.	[
=320	=320	=320	=320
*ped	*	*	*
8BBBL<	8g#L>	.	>
8F#	8ff#	.	.
8A#	8g#	.	.
8BBJ	8ff#J	.	.
*Xped	*	*	*
4F#	(4f#	.	]
=321	=321	=321	=321
*ped	*	*	*
8BBBL<	8d#L)	.	<
8F#	8ff#	.	.
8B	8d#	.	.
8BBJ	8ff#J	.	.
*Xped	*	*	*
4F#	[4d#	.	[
!!LO:LB:g=original
=322	=322	=322	=322
*ped	*	*	*
!	!LO:TX:t=ritenuto.	!	!
8DD#L<	8d#L]	.	.
8F#	8ff#	.	.
8A#	8d#	.	.
8D#J	8ff#J	.	.
*Xped	*	*	*
4F#	4d#	.	.
=323	=323	=323	=323
*ped	*	*	*
8CC#L	8eL	.	.
8G#	8ee	.	.
8c#	8g#	.	.
8C#J	8cc#J	.	.
*Xped	*	*	*
!	!LO:S:s=1:note:problem:note-level slur	!	!
4F#	(>4dd#^ 4a# 4e	.	.
=324	=324	=324	=324
*	*^	*	*
*ped	*	*	*	*
8BBL	2b))	2.d#	.	.
8F#	.	.	.	.
8B	.	.	.	.
8BBJ	.	.	.	.
*Xped	*	*	*	*
4F#	(4b	.	.	.
=325	=325	=325	=325	=325
*ped	*	*	*	*
8GG#L<	4b	2.e	.	.
8E	.	.	.	.
!	!	!LO:TX:t=poco-a-poco-cres_:problem:dynamics with extention lines	!	!
!	!	!	!	!LO:HP:t=poco-a-poco-cres_
8B	4.a#	.	.	<
8GG#J	.	.	.	.
4B)	.	.	.	.
*Xped	*	*	*	*
.	.	.	.	.
.	8g#	.	.	.
=326	=326	=326	=326	=326
*ped	*	*	*	*
.	16qqf##X/LL	.	.	.
.	16qqg#/	.	.	.
.	16qqa#/JJ	.	.	.
(8AA#L	4.g#	2.e	.	.
8E	.	.	.	.
8c#	.	.	.	.
8AA#J	8f#X	.	.	.
*Xped	*	*	*	*
4F#)	4f#)	.	.	.
*	*v	*v	*	*
=327	=327	=327	=327
.	(>16qqd#/LL	.	.
.	16qqf#/JJ	.	.
*ped	*	*	*
(8BBL	4dd#	.	.
8F#	.	.	.
8d#	4.cc#	.	.
8BBJ	.	.	.
4G#)	.	.	.
*Xped	*	*	*
.	8b	.	.
=328	=328	=328	=328
.	16qqe/LL	.	.
.	16qqg#/JJ	.	.
*	*^	*	*
*ped	*	*	*	*
(8C#L	4.bM	2g#	.	.
8G#	.	.	.	.
8e	.	.	.	.
8C#J	8a#	.	.	.
*Xped	*	*	*	*
4A#)	4a#	4f##X	.	[[
!!LO:LB:g=original
=329	=329	=329	=329	=329
!	!LO:TX:a:t=con anima.	!	!	!
.	16qqf#X/LL	.	.	.
.	(<16qqan/	.	.	.
.	16qqb#X/JJ	.	.	.
!	!	!	!	!LO:DY:rj
*ped	*	*	*	*
(8D#L	4ff#	(2.any)	.	f
8B#X	.	.	.	.
8f#	4.ee	.	.	.
8D#J	.	.	.	.
*Xped	*	*	*	*
4f#)	.	.	.	.
.	8dd#	.	.	.
=330	=330	=330	=330	=330
*ped	*	*	*	*
(8EL	4.dd#^	2.g#)	.	fz
8c#	.	.	.	.
8e	.	.	.	.
8EJ	8cc#	.	.	<
4c#)	4cc#	.	.	.
*Xped	*	*	*	*
.	.	.	.	.
=331	=331	=331	=331	=331
*^	*	*	*	*
*ped	*	*	*	*	*
8rcyy	(8EL	4gg#	2.cc##X	.	.
4B^>	8B	.	.	.	.
.	8e	8gg#ML	.	.	.
4.reyy	8EJ	8ff##X	.	.	.
.	4A#)	8gg#	.	.	.
*Xped	*	*	*	*	*
.	.	8aa#J	.	.	[
*v	*v	*	*	*	*
*	*v	*v	*	*
=332	=332	=332	=332
*ped	*	*	*
(8D#L	2ff##X 2dd#)	.	.
8A#	.	.	.
8d#	.	.	.
8D#J	.	.	.
*Xped	*	*	*
4A#)	(4dd#^<	.	.
=333	=333	=333	=333
*	*^	*	*
.	8qqdd#/	.	.	p
*ped	*	*	*	*
!	!LO:TX:t=P:pionowy łuk od 4.cc# do 2.f##X:problem	!	!	!
(8D#L	4.cc#	2.f##X^<	.	.
8A#	.	.	.	.
8d#	.	.	.	.
8D#J	8b	.	.	.
4A#)	4a#X	.	.	.
*Xped	*	*	*	*
.	.	.	.	.
=334	=334	=334	=334	=334
*ped	*	*	*	*
(8EL	4.cc#	2.g#	.	<
8A#	.	.	.	[
8e	.	.	.	.
8EJ	8cc#	.	.	.
4A#)	4cc#)	.	.	.
*Xped	*	*	*	*
=335	=335	=335	=335	=335
.	(>16qqb#X/LL	.	.	.
.	16qqcc#/	.	.	.
.	16qqdd#/JJ	.	.	.
*ped	*	*	*	*
(8D#L	4.cc#	2.f##X^<	.	.
8A#	.	.	.	.
8d#	.	.	.	.
8D#J	8bny	.	.	.
4A#)	4a#	.	.	.
*Xped	*	*	*	*
.	.	.	.	.
!!LO:LB:g=original
=336	=336	=336	=336	=336
*ped	*	*	*	*
(8EL	4.cc#	2.g#	.	<
8A#	.	.	.	[
8e	.	.	.	.
8EJ	8cc#	.	.	.
4A#)	4cc#	.	.	.
*Xped	*	*	*	*
.	.	.	.	.
=337	=337	=337	=337	=337
*ped	*	*	*	*
(8D#L	[2.cc#)	2.f##X^<	.	.
8A#	.	.	.	.
8d#	.	.	.	.
8D#J	.	.	.	.
4A#)	.	.	.	.
*Xped	*	*	*	*
.	.	.	.	.
=338	=338	=338	=338	=338
*ped	*	*	*	*
!	!	!LO:TX:a:t=dim_:problem:dynamics with extention lines	!	!
!	!	!	!	!LO:HP:a:t=dim
(8EL	2.cc#_	4.f##X	.	>
8A#	.	.	.	.
8e	.	.	.	.
8EJ	.	8f##	.	.
4A#)	.	4f##	.	.
=339	=339	=339	=339	=339
(8EL	2.cc#_	2.gn^<	.	.
!	!LO:TX:t=ritenuto.	!	!	!
8A#	.	.	.	.
8e	.	.	.	.
8EJ	.	.	.	.
*Xped	*	*	*	*
4A#)	.	.	.	.
=340	=340	=340	=340	=340
*ped	*	*	*	*
(8F#L	2.cc#]	2f#	.	.
8A#	.	.	.	.
8e	.	.	.	.
8F#J	.	.	.	.
4A#)	.	4e	.	]]
*Xped	*	*	*	*
*	*v	*v	*	*
=341	=341	=341	=341
!	!LO:TX:t=sempre piano.	!	!
(>8BBBL<	(>8d#L	.	<
8F#	8ff#	.	.
8B	8d#	.	.
8BBJ	8ff#J	.	.
4F#	4d#	.	.
.	.	.	[
=342	=342	=342	=342
8BBBL<	8eL>	.	>
8F#	8ff#	.	.
8B	8e	.	.
8BBJ	8ff#J	.	.
4F#	4d#	.	]
!!LO:LB:g=original
=343	=343	=343	=343
8BBBL<	8c#L	.	<
8F#	8ff#	.	.
8A#	8c#	.	.
8BBJ	8ff#J	.	.
4F#	4e	.	.
.	.	.	[
=344	=344	=344	=344
8BBBL<	8g#L>	.	>
8F#	8ff#	.	.
8A#	8g#	.	.
8BBJ	8ff#J	.	.
4F#	4f#	.	]
=345	=345	=345	=345
8BBBL<	8d#L	.	<
8F#	8ff#	.	.
8B	8d#	.	.
8BBJ	8ff#J	.	.
4F#	[4d#	.	.
=346	=346	=346	=346
8BBB#XL<	8d#L>]	.	.
8G#	8ff#	.	.
8d#	8f#	.	.
8D#XJ	8ff#J	.	.
4G#	4gg#	.	[
=347	=347	=347	=347
8CC#L	8f#L>	.	>
8A#	8aa#	.	.
8c#	8f#	.	.
8C#J	8gg#J	.	.
4B	4e#X	.	.
=348	=348	=348	=348
8FF#L<	8f#L>	.	.
8C#	8ff#	.	.
8A#	8f#	.	.
8FF#J	8ff#J	.	]
4A#	4en^>	.	.
=349	=349	=349	=349
8BBBL<	8d#L	.	<
8F#	8ff#	.	.
8B	8d#	.	.
8BBJ	8ff#J	.	.
4F#	4d#	.	[[
!!LO:PB:g=original
=350	=350	=350	=350
8BBBL<	8eL>	.	>
8F#	8ff#	.	.
8B	8e	.	.
8BBJ	8ff#J	.	.
4F#	4d#	.	]
=351	=351	=351	=351
8BBBL<	8c#L	.	<
8F#	8ff#	.	.
8A#	8c#	.	.
8BBJ	8ff#J	.	.
4F#	4e	.	.
.	.	.	[
=352	=352	=352	=352
8BBBL<	8g#L>	.	>
8F#	8ff#	.	.
8A#	8g#	.	.
8BBJ	8ff#J	.	.
4F#	4f#	.	]
=353	=353	=353	=353
8BBBL<	8d#L	.	.
8F#	8ff#	.	.
8B	8d#	.	.
8BBJ	8ff#J	.	.
!	!LO:TX:t=ritenuto.	!	!
4F#	[4d#	.	.
=354	=354	=354	=354
8DD#L<	8d#L]	.	.
8F#	8ff#	.	.
8A#	8d#	.	.
8D#J	8ff#J	.	.
4F#	4d#	.	.
=355	=355	=355	=355
8CC#L	8eL	.	.
8G#	8ee	.	.
8c#	8g#	.	.
8C#J	8cc#J	.	.
!	!LO:S:s=1:note:problem:note-level slur	!	!
4F#	(>4dd#^< 4a# 4e	.	.
=356	=356	=356	=356
*	*^	*	*
8BBL	2b))	2.d#	.	.
8F#	.	.	.	.
8B	.	.	.	.
8BBJ	.	.	.	.
4F#)	(4b^>	.	.	.
!!LO:LB:g=original
=357	=357	=357	=357	=357
(8GG#L<	4b	2.e	.	.
!	!	!LO:TX:t=poco-a-poco-cres_:problem:dynamics with extention lines	!	!
!	!	!	!	!LO:HP:t=poco-a-poco-cres
8E	.	.	.	<
8B	4.a#	.	.	.
8GG#J	.	.	.	.
4B)	.	.	.	.
.	8g#	.	.	.
=358	=358	=358	=358	=358
.	16qqf##X/LL	.	.	.
.	16qqg#/	.	.	.
.	16qqa#/JJ	.	.	.
(8AA#L	4.g#	2.e	.	.
8E	.	.	.	.
8c#	.	.	.	.
8AA#J	8f#y	.	.	.
4F#)	4f#)	.	.	.
*	*v	*v	*	*
=359	=359	=359	=359
.	&(>(<16qqd#/LL	.	.
.	16qqf#/JJ	.	.
(8BBL	4dd#/)	.	.
8F#	.	.	.
8d#	4.cc#/	.	.
8BBJ	.	.	.
4G#)	.	.	.
.	8b/	.	.
=360	=360	=360	=360
.	(16qqe/LL	.	.
.	16qqg#/JJ	.	.
*	*^	*	*
(8C#L	4.bM	2g#)	.	[
8G#	.	.	.	.
8e	.	.	.	.
8C#J	8a#	.	.	.
4A#)	4a#&)	4f##X	.	.
=361	=361	=361	=361	=361
.	(>16qqf#/LL	.	.	.
.	(<16qqany/	.	.	.
.	16qqb#X/JJ	.	.	.
!	!	!	!	!LO:DY:rj
(8D#L	4ff#	(2.any)	.	f
8B#X	.	.	.	.
8f#	4.ee	.	.	.
8D#J	.	.	.	.
4f#)	.	.	.	.
.	8dd#	.	.	.
=362	=362	=362	=362	=362
(8EL	4.dd#	2.g#)	.	.
8c#	.	.	.	.
8f#	.	.	.	.
8EJ	8cc#	.	.	.
.	.	.	.	<
4e)	4cc#	.	.	.
=363	=363	=363	=363	=363
*^	*	*	*	*
.	.	.	(<16qqg#/LL	.	.
.	.	.	16qqcc##X/JJ	.	.
8rcyy	(8EL	4gg#	2.cc##)	.	.
4B^>	8B	.	.	.	.
.	8e	8gg#ML	.	.	.
4.reyy	8EJ	8ff##X	.	.	.
.	4A#)	8gg#	.	.	.
.	.	8aa#J	.	.	[
*v	*v	*	*	*	*
!!LO:LB:g=original
=364	=364	=364	=364	=364
(8D#L	2ff##X)	2dd#	.	.
8A#	.	.	.	.
8d#	.	.	.	.
8D#J	.	.	.	.
4A#)	4dd#^>	4rgyy	.	.
=365	=365	=365	=365	=365
.	(>8qdd#/	.	.	.
!	!	!	!	!LO:DY:rj
(8D#L	4.cc#	2.f##X^<	.	p
8A#	.	.	.	.
8d#	.	.	.	.
8D#J	8b	.	.	.
4A#)	4a#	.	.	.
=366	=366	=366	=366	=366
(8EL	4.cc#	2.g#	.	<
8A#	.	.	.	[
8e	.	.	.	.
8EJ	8cc#	.	.	.
4A#)	4cc#)	.	.	.
=367	=367	=367	=367	=367
.	(>16qqb#/LL	.	.	.
.	16qqcc#/	.	.	.
.	16qqdd#/JJ	.	.	.
(8D#L	4.cc#	2.f##X^<	.	.
8A#	.	.	.	.
8d#	.	.	.	.
8D#J	8bny	.	.	.
4A#)	4a#	.	.	.
=368	=368	=368	=368	=368
(8EL	4.cc#	2.g#	.	<
8A#	.	.	.	[
8e	.	.	.	.
8EJ	8cc#	.	.	.
4A#)	4cc#	.	.	.
=369	=369	=369	=369	=369
(8D#L	[2.cc#	2.f##X	.	.
8A#	.	.	.	.
!	!	!LO:TX:a:t=dim_:problem:dynamics with extention lines	!	!
!	!	!	!	!LO:HP:a:t=dim
8d#	.	.	.	>
8D#J	.	.	.	.
4A#)	.	.	.	.
=370	=370	=370	=370	=370
(8EL	[2.cc#_	4.f##X	.	.
8A#	.	.	.	.
8e	.	.	.	.
8EJ	.	8f##	.	.
4A#)	.	4f##	.	]
!!LO:LB:g=original
=371	=371	=371	=371	=371
!	!	!LO:TX:t=ritenuto.	!	!
(8EL	2.cc#_	2.gn^<	.	.
8A#	.	.	.	.
8e	.	.	.	.
8EJ	.	.	.	.
4A#)	.	.	.	.
=372	=372	=372	=372	=372
(8F#L	2.cc#]	2f#	.	.
8A#	.	.	.	.
8e	.	.	.	.
8F#J	.	.	.	.
4A#)	.	4e)	.	.
*	*v	*v	*	*
=373	=373	=373	=373
(>8BBBL<	(>8d#L	.	pp
8F#	8ff#	.	<
8B	8d#	.	.
8BBJ	8ff#J	.	.
4F#	4d#	.	.
=374	=374	=374	=374
8BBBL<	8eL>	.	[
8F#	8ff#	.	.
8B	8e	.	>
8BBJ	8ff#J	.	.
4F#	4d#	.	]
=375	=375	=375	=375
8BBBL<	8c#L	.	<
8F#	8ff#	.	.
8A#	8c#	.	.
8BBJ	8ff#J	.	.
4F#	4e	.	.
.	.	.	[
=376	=376	=376	=376
8BBBL<	8g#L>	.	.
8F#	8ff#	.	.
8A#	8g#	.	.
8BBJ	8ff#J	.	>
4F#	4f#	.	.
.	.	.	]
=377	=377	=377	=377
8BBBL<	8d#L	.	.
8F#	8ff#	.	.
8B	8d#	.	.
8BBJ	8ff#J	.	.
4F#	[4d#	.	.
!!LO:LB:g=original
=378	=378	=378	=378
*^	*	*	*
*ped	*	*	*	*
8rdyy	8BBB#XL	8d#L>]	.	<
4A#^>	8A#	8ff#	.	.
.	8d#	8f#	.	.
4.reyy	8BB#XJ	8ff#J	.	.
*Xped	*	*	*	*
.	4G#	4gg#	.	.
.	.	.	.	[
*v	*v	*	*	*
=379	=379	=379	=379
*ped	*	*	*
8CC#L	8f#L>	.	.
8G#	8aa#	.	.
8c#	8f#	.	.
8C#J	8gg#J	.	.
*Xped	*	*	*
4B	4e#X	.	.
=380	=380	=380	=380
*ped	*	*	*
8FF#L<	8f#L>	.	.
8C#	8ff#	.	.
8A#	8f#	.	.
8FF#J	8ff#J	.	.
*Xped	*	*	*
4A#	4eny	.	.
=381	=381	=381	=381
*ped	*	*	*
8FF#L<	8d#L	.	.
8BB#X	8ff#	.	<
8An	8d#	.	.
8FF#J	8ff#J	.	.
*Xped	*	*	*
4A	4d#	.	.
.	.	.	[
=382	=382	=382	=382
*ped	*	*	*
!	!LO:TX:t=sempre-diminuendo-e-ral-lentando_:dur=18q:ext=ud:problem:text with extention lines	!	!
8FF#L<	8eL>	.	.
8BB#X	8ff#	.	.
8G#	8e	.	.
8FF#J	8ff#J	.	.
*Xped	*	*	*
4G#	4d#	.	.
=383	=383	=383	=383
*ped	*	*	*
8FF#L<	8c#L	.	.
8E	8ff#	.	.
8G#	8c#	.	.
8FF#J	8ff#J	.	.
*Xped	*	*	*
4G#	4e	.	.
=384	=384	=384	=384
*ped	*	*	*
8FF#L<	8g#L>	.	.
.	.	.	>
8E	8ff#	.	.
8A#X	8g#	.	.
8FF#J	8ff#J	.	.
4A#	4f#	.	]
*Xped	*	*	*
.	.	.	.
!!LO:LB:g=original
=385	=385	=385	=385
*ped	*	*	*
8BBBL<	8d#L	.	.
8F#	8ff#	.	.
8B	8d#	.	.
8BBJ	8ff#J	.	.
*Xped	*	*	*
4F#	4d#	.	.
=386	=386	=386	=386
*ped	*	*	*
8BBB#XL<	8dnL	.	.
8F#	8ff#	.	.
8A#	8d	.	.
8BB#XJ	8ff#J	.	.
*Xped	*	*	*
4F#	4d	.	.
=387	=387	=387	=387
*^	*	*	*
*ped	*	*	*	*
4.rcyy	8CC#L	8c#L	.	.
.	8F#	8cc#	.	.
.	8A#	8c#	.	.
4.C#	8C#J	8cc#J	.	.
.	[>4G# ([4E#X	4c#	.	.
*v	*v	*	*	*
=388	=388	=388	=388
2.G#] 2.E#] 2.C#))	8c#L	.	.
.	8cc#	.	.
.	8c#	.	.
.	8cc#J	.	.
.	4c#)	.	.
*Xped	*	*	*
.	.	.	.
*clefG2	*	*	*
=389	=389	=389	=389
*ped	*8va	*	*
!	!	!	!LO:DY:rj
2.ggn 2.ee 2.cc# 2.gn	2.bbb^< 2.eee 2.bb	.	ff
*	*X8va	*	*
=390	=390	=390	=390
!	!LO:TX:a:t=loco.	!	!
2.rdd	8c#L	.	pp
!	!LO:TX:t=ritenuto.	!	!
.	8cc#	.	.
.	8c#	.	.
*Xped	*	*	*
.	8cc#J	.	.
.	4B	.	.
*clefF4	*	*	*
=391	=391	=391	=391
*ped	*	*	*
4AA#\ 4AAA#\	4f#^> 4e 4c# 4F#<	.	ff
4rGG	(>8F#<L	.	pp
.	8cc#J	.	.
!	!LO:TX:t=smorzando.	!	!
4rGG	4c#	.	.
=392	=392	=392	=392
2.rF	8gnL	.	.
.	8cc#	.	.
.	8g^<	.	.
.	8cc#J	.	.
.	4f#)	.	.
*kcancel	*kcancel	*	*
!!LO:PB:g=original
=393	=393	=393	=393
*k[f#c#]	*k[f#c#]	*	*
!	!LO:TX:a:B:t=Tempo 1.º	!	!
!	!LO:TX:t=molto con fuoco.	!	!
(8D^>L< 8EE#X	4r	.	.
8FF#	.	.	.
8BBBJ)	8r	.	.
8rEE	(8E#X<^>L	.	.
4rEE	8F#<	.	.
.	8B<J)	.	.
=394	=394	=394	=394
(4G^< 4E	(8dL	.	.
.	8A#X	.	.
4F# 4D)	8c#	.	.
.	8B	.	.
4r	8d	.	.
.	8f#J	.	.
=395	=395	=395	=395
(8DL< 8EE#X	8b/)	.	.
8FF#	4r	.	.
8BBBJ)	.	.	.
8rCC	(8E#X<L	.	.
4rCC	8F#<	.	.
.	8B<J)	.	.
=396	=396	=396	=396
(4G 4E	(<8dL	.	.
.	8A#X	.	.
4F# 4D)	8c#	.	.
.	8B	.	.
4r	8d	.	.
.	8f#J	.	.
=397	=397	=397	=397
4BB\	8dd)	.	fz
.	8r	.	.
4r	(8eeL	.	<
.	8a#X	.	.
4r	8dd	.	.
.	8bJ	.	.
=398	=398	=398	=398
*	*	*	*^
4d' 4F#	8ggL	.	.	.
.	8cc#	.	.	.
4BB'\	8ff#	.	.	.
.	8dd	.	.	.
!	!LO:TX:t=cres_:problem:dynamics with extention lines	!	!	!
!	!	!	!	!LO:HP:t=cres
4d' 4F#	8ccc#	.	.	<
.	8ee#XJ	.	.	.
=399	=399	=399	=399	=399
4BB'\	8bbL	.	.	.
.	8ff#	.	.	.
4d' 4F#	8eee	.	.	.
.	8aa#X	.	.	.
4BB'\	8ddd	.	.	.
.	8bbJ	.	[[	.
=400	=400	=400	=400	=400
4d 4F#	4ggg)	.	.	.
4r	4r	.	.	.
4r	4r	.	.	[[
*	*	*	*v	*v
!!LO:LB:g=original
=401	=401	=401	=401
(8EL< 8FF#	4r	.	.
8GG	.	.	.
8BBBJ)	8r	.	.
!	!	!	!LO:HP:a
8rCC	(8A#X<L	.	<
4rCC	8B<	.	.
.	8eJ	.	.
=402	=402	=402	=402
!	!LO:TX:t=P:diminuendolike accent:problem	!	!
(4cn 4A	8g^<L	.	.
.	8d#X	.	.
4B 4G)	8f#	.	.
.	8e	.	.
4r	8g	.	.
.	8bJ	.	[
=403	=403	=403	=403
(8EL< 8FF#	8ee)	.	.
8GG	4r	.	.
8BBBJ)	.	.	.
!	!	!	!LO:HP:a
8rCC	(8A#X<L	.	<
4rCC	8B<	.	.
.	8eJ	.	.
=404	=404	=404	=404
!	!LO:TX:t=P:diminuendolike accent:problem	!	!
(4cn 4A	8g^<L	.	.
.	8d#X	.	.
4B 4G)	8f#	.	.
.	8e	.	.
4r	8g	.	.
.	8bJ	.	[[
=405	=405	=405	=405
4BB	8gg)	.	fz
.	8r	.	.
4r	(8ff#L	.	<
.	8a#X	.	.
4r	8ee	.	.
.	8bJ	.	.
=406	=406	=406	=406
*	*	*	*^
4e' 4G	8aaL	.	.	.
.	8dd#X	.	.	.
4BB'	8gg	.	.	.
!	!LO:TX:t=cres_:problem:dynamics with extention lines	!	!	!
!	!	!	!	!LO:HP:t=cres
.	8ee	.	.	<
4e' 4G	8cccn	.	.	.
.	8ff#J	.	.	[[
*	*	*	*v	*v
!!LO:LB:g=original
=407	=407	=407	=407
4BB'\	8bbL	.	.
.	8gg	.	.
4e' 4G	8fff#	.	.
.	8aa#X	.	.
4BB'\	8eee	.	.
.	8bbJ	.	[
=408	=408	=408	=408
*	*8va	*	*
4e 4G	4eeee)	.	fz
4r	4r	.	.
4r	4r	.	.
*clefG2	*	*	*
=409	=409	=409	=409
*^	*	*	*
!	!	!	!	!LO:DY:rj
4ff#	2.ee 2.cc# (<2.a#X	(4fff#	.	f
2gg	.	8gggL	.	>
.	.	8fff#	.	.
.	.	8fffn	.	.
.	.	8eeeJ)	.	]
*v	*v	*	*	*
=410	=410	=410	=410
4gg 4dd 4b)	(>8eeeL	.	>
.	8ddd	.	.
4f# 4F#	8ccc#	.	]
.	8bb	.	.
4r	8aa	.	.
.	8ggJ	.	.
*	*X8va	*	*
!	!LO:TX:a:t=loco.	!	!
=411	=411	=411	=411
4cc#' 4a	8ff#L	.	>
.	8gg	.	.
4F#'	8ee#X	.	.
.	8ff#	.	.
4b' 4g	8bb	.	]
.	8eenJ	.	.
=412	=412	=412	=412
4a' 4f#	8ddL	.	>
.	8ee	.	.
4F#'	8cc#	.	.
.	8dd	.	.
4g 4e	8gg	.	]
.	8bJ	.	.
*clefF4	*	*	*
!!LO:LB:g=original
=413	=413	=413	=413
*	*^	*	*
*	*	*^	*	*
4r	8b-XL>	4g	2c#^<\	.	.
.	8ee	.	.	.	.
2F#	8g#X	2rddddyy	.	.	.
.	8a	.	.	.	.
!	!	!	!LO:S:s=1:note:problem:note-level slur	!	!
.	8ff#	.	&(<4f#\ (<4d	.	.
.	8ddJ)	.	.	.	.
=414	=414	=414	=414	=414	=414
4r	(>8b-XL>	4gn&)	2c#^<\)	.	.
.	8ee	.	.	.	.
[2F#	8g#X	2rbbbyy	.	.	.
.	8a	.	.	.	.
!	!	!	!LO:S:s=1:note:problem:note-level slur	!	!
.	8ff#	.	&(<4f#\ (<4d	.	.
.	8ddJ	.	.	.	.
=415	=415	=415	=415	=415	=415
4F#]	8a-XL>	4fn&)	2B^<\)	.	.
.	8dd	.	.	.	.
[2F#	8f#X	2rddddyy	.	.	.
.	8g	.	.	.	.
.	8ee	.	[<4e\ (<4c#	.	.
.	8cc#J	.	.	.	.
=416	=416	=416	=416	=416	=416
4F#]	8gL>	4e]	2A#X^<\)	.	.
.	8cc#	.	.	.	.
(2F#	8e#X	2rbbbyy	.	.	.
.	8f#	.	.	.	.
.	8dd	.	4d\ 4B	.	.
.	8bJ	.	.	.	.
*	*v	*v	*v	*	*
=417	=417	=417	=417
!LO:S:s=1:note:problem:note-level slur	!	!	!
8e 8A#X) 8F#	8f#)	.	.
8r	(>8r	.	.
!	!	!	!LO:DY:rj
4FF# 4FFF#	8gL	.	fz
.	8f#	.	.
4r	8fn	.	.
.	8eJ	.	.
=418	=418	=418	=418
!	!LO:TX:t=P:diminuendolike accent:problem	!	!
4G 4D 4BB	8e^L	.	.
.	8d	.	.
4FF# 4FFF#	8c#	.	.
.	8B	.	.
4r	8A	.	.
.	8GJ	.	.
!!LO:LB:g=original
=419	=419	=419	=419
4C#'< 4AA	8F#<L	.	.
.	8G<	.	.
4FFF#'</	8E#X<	.	.
.	8F#<	.	.
4BB'< 4GG	8B<	.	.
.	8Eny<J	.	.
=420	=420	=420	=420
4AA'< 4FF#	8D<L	.	.
.	8E<	.	.
4FFF#'</	8C#<	.	.
.	8D<	.	.
[<4GG'> 4EE	8G<	.	.
.	8BB<J	.	.
=421	=421	=421	=421
*^	*	*	*
!LO:TX:t=P:2.GG and 2.CC# in the middle of the measure:problem	!	!	!	!LO:DY:b=2:rj
2.GG_	[2.CC#^<\	8AA#X<L	.	fz
.	.	8C#<	.	.
.	.	8E<	.	.
.	.	8G<	.	.
.	.	8A#X<	.	.
.	.	8c#<J	.	.
=422	=422	=422	=422	=422
!LO:TX:t=P:2.GG in the middle of the measure:problem	!	!	!	!
2.GG_	2CC#]	8d#XL	.	.
.	.	8e	.	.
.	.	8e#X	.	.
.	.	8f#	.	.
.	4BBB	8g	.	.
.	.	8dnJ	.	.
=423	=423	=423	=423	=423
4GG]	4AAA#X	8c#L	.	.
.	.	8e	.	.
4r	2rCCyy	8ee 8cc#	.	.
.	.	8a#X	.	.
4r	.	8g	.	.
.	.	8fnJ	.	.
*v	*v	*	*	*
=424	=424	=424	=424
4r	8eL	.	.
.	8e-X	.	.
!	!	!	!LO:HP:b=2
(4G'	8d	.	<
.	8c#	.	.
4G')	8cn	.	[
.	8BJ	.	.
!!LO:LB:g=original
=425	=425	=425	=425
*^	*	*	*
!	!	!	!	!LO:DY:rj
[2.G	[2.C#	8A#X^<L	.	fz
.	.	8d	.	.
.	.	8e	.	.
.	.	8g	.	.
.	.	8a#X	.	.
.	.	8cc#J	.	.
=426	=426	=426	=426	=426
2.G_	2C#]	8dd#XL	.	.
.	.	8ee	.	.
.	.	8ee#X	.	.
.	.	8ff#	.	.
.	4BB	8gg	.	.
.	.	8ddnJ	.	.
=427	=427	=427	=427	=427
8G]	8AA#X	8cc#'>)	.	.
8rByy	8r	8r	.	.
2reyy	4cn'> 4Cn	4aa#y'> 4gg 4ee 4a#X	.	.
!	!	!	!	!LO:DY:rj
.	4B'> 4BB	4bb'> 4gg 4ee 4b	.	ff
*v	*v	*	*	*
=428	=428	=428	=428
4A#X'> 4AA#X	4ccc# 4gg 4ee 4cc#X	.	.
!	!LO:TX:t=ritenuto.	!	!LO:DY:b=2:rj
(4G'>\ 4GG\	4r	.	p
4AA#X'< 4AAA#X	4r	.	.
=429	=429	=429	=429
[2.BB [2.BBB	2.rdd	.	.
=430	=430	=430	=430
2.BB] 2.BBB])	4r	.	.
.	(>4dd 4g 4d	.	>
.	4g 4d 4G<	.	]
=431	=431	=431	=431
*^	*	*	*
2c#^> 2G	2AA#X 2AAA#X	4f#	.	.
.	.	4e)	.	.
!	!	!	!	!LO:DY:b=2:rj
4rfyy	(>4An^< 4AAn	4r	.	f
*v	*v	*	*	*
=432	=432	=432	=432
4G#X\ 4GG#X\	2.rdd	.	.
4Gn\ 4GGn\	.	.	.
4AA#X 4AAA#X)	.	.	.
!!LO:PB:g=original
=433	=433	=433	=433
[2.BB\) [2.BBB\	4r	.	.
.	4r	.	.
.	(>4ee 4g 4e	.	>
=434	=434	=434	=434
2.BB\] 2.BBB\]	4ee-X 4g 4e-X	.	.
.	4dd 4g 4d	.	.
.	.	.	]
.	4g 4d 4G<)	.	.
=435	=435	=435	=435
*^	*	*	*
N[2.c#^> N[2.G	2.BB 2.BBB	2f#	.	.
.	.	[>4e	.	.
*v	*v	*	*	*
=436	=436	=436	=436
4BB] 4BBB	2.e] 2.c#<N] 2.G<N]	.	>
(4BB 4BBB	.	.	.
4AA#X 4AAA#X	.	.	.
=437	=437	=437	=437
*^	*	*	*
2B 2F#	2.BB 2.BBB)	(4e^>	.	.
.	.	4d)	.	.
4rByy	.	4r	.	.
*v	*v	*	*	*
=438	=438	=438	=438
\4BB 4BBB\	2.rdd	.	.
(>4BB\ 4BBB\	.	.	.
4AA#X\ 4AAA#X\	.	.	.
=439	=439	=439	=439
*^	*	*	*
2B^> 2F#	2.BB 2.BBB)	(4e	.	.
.	.	4d)	.	.
4rGyy	.	4r	.	.
*v	*v	*	*	*
=440	=440	=440	=440
!	!LO:TX:t=ritenuto.	!	!
(4BB\ 4BBB\	2.rdd	.	.
4C#\ 4CC#\	.	.	.
4D\ 4DD\)	.	.	.
!!LO:LB:g=original
=441	=441	=441	=441
*^	*	*	*
2.B^> 2.G	2.EE/ 2.EEE/	(2d^>	.	.
.	.	4c#)	.	.
*v	*v	*	*	*
=442	=442	=442	=442
!	!	!	!LO:DY:rj
([2.e	([2.ee^<	.	p
=443	=443	=443	=443
2.e_	2.ee_	.	.
=444	=444	=444	=444
*^	*^	*	*
2.e_	4d	2.ee_	4dd	.	.
.	4c#	.	4cc#	.	.
.	4B	.	4b	.	.
=445	=445	=445	=445	=445	=445
2.e])	2.c#	2.ee])	2.cc#	.	.
*ped	*	*	*	*	*
.	.	.	.	.	.
8qG 8qGG/	.	8qb 8qe/	.	.	.
*v	*v	*	*	*	*
*	*v	*v	*	*
=446	=446	=446	=446
([2.e	([2.ee^	.	.
=447	=447	=447	=447
2.e_	2.ee_	.	.
*Xped	*	*	*
=448	=448	=448	=448
*^	*^	*	*
2.e]	4d	2.ee]	4dd	.	.
.	4c#	.	4cc#	.	.
.	4B)	.	4b)	.	.
*v	*v	*	*	*	*
*	*v	*v	*	*
=449	=449	=449	=449
[2.F#	([2.cc# [2.a [2.f# [2.e	.	.
=450	=450	=450	=450
2.F#_	2.cc#] 2.a] 2.f#] 2.e]	.	.
!!LO:LB:g=original
=451	=451	=451	=451
4F#] 4BB	4b 4f# 4d)	.	.
4r	4r	.	.
4r	4r	.	.
=452	=452	=452	=452
!LO:TX:a:t=1	!LO:TX:a:t=1	!	!
2.rF	2.rdd	.	.
=453	=453	=453	=453
!	!LO:TX:t=sotto voce.	!	!
(8DL< 8FF#	4r	.	.
.	.	.	.
!	!LO:TX:a:t=agitato.	!	!
8GG	.	.	.
8BBB-XJ)	8r	.	.
8rCC	(8D<L	.	.
4rCC	8G<	.	.
.	8B<J	.	.
=454	=454	=454	=454
(8AAAL<	4.e^>)	.	.
8GG	.	.	.
8C#J)	.	.	.
8rGG	(8G<L	.	.
4rGG	8A<	.	.
.	8G<J)	.	.
=455	=455	=455	=455
(8F#^>L< 8GG#X	4r	.	<
8AA	.	.	.
!	!	!	!LO:HP:a
8DDJ)	(<8F#<L	.	<
8rEE	8A<	.	.
4rEE	8f#	.	.
.	8f#J	.	.
=456	=456	=456	=456
2.rF	8ff#'>)	.	[
.	8r	.	.
.	4r	.	.
.	4r	.	.
!!LO:LB:g=original
=457	=457	=457	=457
!	!LO:TX:t=cres_:problem:dynamics with extention lines	!	!
!	!	!	!LO:HP:t=cres
(>8F#^>L< 8AA#X	4r	.	<
8BB	.	.	.
8DDJ)	8r	.	.
8rEE	(8F#<L	.	.
4rEE	8B<	.	.
.	8f#J	.	.
=458	=458	=458	=458
(>8CC#L<	4.g^>)	.	.
8BB	.	.	.
8E#XJ)	.	.	.
8rC	8B<L	.	.
4rC	8c#<	.	.
.	8B<J	.	.
=459	=459	=459	=459
(8A^>L< 8BB#X	4r	.	.
8C#	.	.	.
8FF#J)	(<8A<L	.	.
8rAA	8c#<	.	.
4rAA	8a	.	.
.	.	.	[
.	8aJ	.	.
=460	=460	=460	=460
2.rF	8aa'>)	.	.
.	8r	.	.
.	4r	.	.
.	4r	.	.
=461	=461	=461	=461
(8A^>L< 8C#X	4r	.	.
8D	.	.	.
8FFnJ)	8r	.	.
8r	(8A<L	.	.
!	!LO:TX:t=cres_:problem:dynamics with extention lines	!	!
!	!	!	!LO:HP:t=cres
4r	8d	.	<
.	8aJ	.	.
!!LO:LB:g=original
=462	=462	=462	=462
!	!LO:TX:a:t=P:w tym takcie łuk w górę:problem	!	!
(8EEL<	4.b/	.	.
8D	.	.	.
8G#XJ)	.	.	.
8r	8dL	.	.
4r	8e	.	.
.	8dJ)	.	[
=463	=463	=463	=463
(>8c#L 8D#X	4r	.	.
8E	.	.	.
8AAJ)	8r	.	.
8r	(8c#L	.	.
4r	8e	.	.
.	[8cc#J)	.	.
=464	=464	=464	=464
!	!LO:TX:t=dim_:problem:dynamics with extention lines	!	!
!	!	!	!LO:HP:t=dim
(8c#X^>L< 8C##X	4cc#/]	.	<
8D#X	.	.	.
8AAnJ)	8r	.	.
8r	(8c#L	.	.
4r	8f##X	.	.
.	[8dd#XJ)	.	[
=465	=465	=465	=465
(8B#X^>L< 8C##X	4dd#X/]	.	.
8D#X	.	.	.
8GG#XJ)	8r	.	.
8r	(<8B#XL	.	.
4r	8g#X	.	.
.	[8b#XJ)	.	.
=466	=466	=466	=466
(>8cn^>L< 8C#X	4b#X/]	.	.
8Dn	.	.	.
8AA-XJ)	8r	.	.
8r	(8cnL	.	.
4r	8f#X	.	.
.	[8ddnJ)	.	.
!!LO:LB:g=original
=467	=467	=467	=467
(8BL< 8C#X	4dd/]	.	.
8D	.	.	.
8GGJ)	8r	.	.
8r	(<8BL	.	.
4r	8g	.	.
.	[8bJ)	.	.
=468	=468	=468	=468
(8BL< 8BB#X	4b/]	.	.
8C#	.	.	.
8GGnJ)	8r	.	.
8r	(8BL	.	.
4r	8e#X	.	.
.	[8cc#J)	.	.
=469	=469	=469	=469
*ped	*	*	*
!	!LO:TX:t=LO:HP:t=poco-a-poco\ cres_:problem:dynamics with extention lines	!	!
!	!	!	!LO:HP:t=poco-a-poco\ cres
(8A#XL<	4.cc#/]	.	<
8C#	.	.	.
8FF#J)	.	.	.
8r	(<8A#X<L	.	.
4r	8f#	.	.
.	[8cc#J)	.	.
=470	=470	=470	=470
(8c#L	4.cc#/])	.	.
8F#	.	.	.
8AA#XJ)	.	.	.
8r	(8c#L	.	.
4r	8a#X	.	.
*Xped	*	*	*
.	8ff#J)	.	.
!!LO:PB:g=original
=471	=471	=471	=471
*ped	*	*	*
(>8dL	4r	.	.
8F#	.	.	.
8GG#XJ)	8r	.	.
8r	(8dL	.	.
4r	8b	.	.
*Xped	*	*	*
.	8ff#J)	.	.
=472	=472	=472	=472
*ped	*	*	*
(>8e#XL	4r	.	.
8B	.	.	.
8C#J)	8r	.	.
8r	(8e#XL>	.	.
4r	8b	.	.
.	8ggJ)	.	.
*Xped	*	*	*
.	.	.	.
=473	=473	=473	=473
*ped	*	*	*
(8g#X>L	4rff	.	.
8A#X	.	.	.
8EJ)	8rff	.	.
8r	(<8g#L>	.	.
4r	8cc#	.	.
.	8aa#XJ)	.	.
*Xped	*	*	*
.	.	.	.
=474	=474	=474	=474
*ped	*	*	*
(8f##X>L	4rff	.	.
8A#X	.	.	.
8D#XJ)	8rff	.	.
8r	(8f##L>	.	.
4r	8dd#X	.	.
.	8aa#yJ)	.	.
*Xped	*	*	*
.	.	.	.
=475	=475	=475	=475
*ped	*	*	*
(8b>L	4rff	.	.
8d#X>	.	.	.
8G#XJ)	8rff	.	.
8r	(<8g#yL>	.	.
4r	8dd#y	.	.
*Xped	*	*	*
.	8bbJ)	.	.
=476	=476	=476	=476
*ped	*	*	*
(>8e#X>L	4rff	.	.
8B	.	.	.
8C#J)	8rff	.	.
8r	(<8e#L>	.	.
4r	8b	.	.
.	8gg#XJ)	.	.
!!LO:LB:g=original
=477	=477	=477	=477
*ped	*	*	*
(8a#X>L	4rff	.	.
8c#	.	.	.
8F#J)	8rff	.	.
8r	(<8f#L>	.	.
4r	8a#	.	.
*Xped	*	*	*
.	8ff#J)	.	.
*clefG2	*	*	*
=478	=478	=478	=478
*	*^	*	*
*ped	*	*	*	*
(8cc#^>L 8f#	2reeeyy	4r	.	.
8A#XJ)	.	.	.	.
*	*	*8va	*	*
4r	.	(8fff#L	.	.
.	.	8aa#X	.	.
4r	4fff#	8fff#	.	.
*Xped	*	*	*	*
.	.	8ff#J)	.	.
=479	=479	=479	=479	=479
*ped	*	*	*	*
(8dd^>L 8f#	2reeeyy	4r	.	.
8G#XJ)	.	.	.	.
4r	.	(8fff#L	.	.
.	.	8bb	.	.
4r	4fff#	8fff#	.	.
*Xped	*	*	*	*
.	.	8ff#J)	.	.
=480	=480	=480	=480	=480
*ped	*	*	*	*
(8ee#X^>L 8b 8g#X	2rcccyy	4r	.	.
8c#J)	.	.	.	.
4r	.	(>8ggg#XL	.	.
.	.	8ccc#	.	.
4r	4ggg#	8ggg#	.	.
*Xped	*	*	*	*
.	.	8bbJ)	.	.
*	*v	*v	*	*
=481	=481	=481	=481
*ped	*	*	*
(8gg#X^>L 8cc# 8a#X	4r	.	.
8eJ)	.	.	.
4r	(8aaa#XL	.	.
.	8ccc#	.	.
4r	8aaa#	.	.
*Xped	*	*	*
.	8gg#XJ)	.	.
=482	=482	=482	=482
*ped	*	*	*
(8ff##X^>L 8cc# 8a#X	4r	.	.
8d#XJ)	.	.	.
4r	(8aaa#XL	.	.
.	8ccc#	.	.
4r	8aaa#	.	[
*Xped	*	*	*
.	8ff##XJ)	.	.
!!LO:LB:g=original
=483	=483	=483	=483
*ped	*	*	*
(8ff#^>L 8b 8f#	4r	.	.
8dnJ)	.	.	.
4r	(8bbbL	.	.
.	8ddd	.	.
4r	8bbb	.	.
*Xped	*	*	*
.	8ff#J)	.	.
=484	=484	=484	=484
*ped	*	*	*
(8ee#X^>L 8b 8g#X	4r	.	.
8c#J)	.	.	.
4r	(>8ggg#XL	.	.
.	8bb	.	.
4r	8ggg#	.	.
*Xped	*	*	*
.	8ee#XJ)	.	.
=485	=485	=485	=485
*ped	*	*	*
(8a#X^>L 8f# 8c#	4r	.	.
8F#J)	.	.	.
!	!	!	!LO:DY:rj
4r	(8fff#^<L 8ccc#	.	ff
.	8aa#X	.	.
4r	8fff# 8ccc#	.	.
*Xped	*	*	*
.	8ff#J)	.	.
=486	=486	=486	=486
*ped	*	*	*
(8b^>L 8d	4r	.	.
8F#J)	.	.	.
4r	(>8ggg^<L 8ddd	.	.
.	8bb	.	.
4r	8ggg 8ddd	.	.
*Xped	*	*	*
.	8ggJ)	.	.
=487	=487	=487	=487
*ped	*	*	*
!	!LO:TX:a:t=sempre-piu-animato.:dur=5qe:ext=ud:problem:text with extention lines	!	!
(8a#X^>L 8c#	4r	.	.
8F#J)	.	.	.
4r	(8fff#^<L 8ccc#	.	.
.	8aa#X	.	.
4r	8fff# 8ccc#	.	.
*Xped	*	*	*
.	8ff#J)	.	.
=488	=488	=488	=488
*ped	*	*	*
(8an^>L 8cn	4r	.	.
8F#XJ)	.	.	.
4r	(8fffn^<L 8cccn	.	.
.	8aan	.	.
4r	8fff 8ccc	.	.
*Xped	*	*	*
.	8ffnJ)	.	.
!!LO:PB:g=original
=489	=489	=489	=489
*ped	*	*	*
(8g#X^>L 8B	4r	.	.
8F#J)	.	.	.
4r	(8eee^<L< 8bb	.	.
.	8gg#X	.	.
4r	8eee 8bb	.	.
*Xped	*	*	*
.	8eeJ)	.	.
=490	=490	=490	=490
*ped	*	*	*
(8a^>L 8cn	4r	.	.
8F#XJ)	.	.	.
4r	(>8fffn^<L 8cccn	.	.
.	8aa	.	.
4r	8fff 8ccc	.	.
*Xped	*	*	*
.	8ffnyJ)	.	.
=491	=491	=491	=491
*ped	*	*	*
(8g#X^>L 8B	4r	.	.
8F#J)	.	.	.
4r	(8eee^<L< 8bb	.	.
.	8gg#X	.	.
4r	8eee 8bb	.	.
*Xped	*	*	*
.	8eeJ)	.	.
=492	=492	=492	=492
*ped	*	*	*
(8gn^>L 8B	4r	.	.
8F#J)	.	.	.
4r	(8eee^<L< 8bb	.	.
.	8ggn	.	.
4r	8eee 8bb	.	.
*Xped	*	*	*
.	8eeJ)	.	.
=493	=493	=493	=493
*ped	*	*	*
!	!	!	!LO:DY:rj
4e 4c# 4F#	4eee\ 4ccc#\ 4aa#X\ 4gg\ 4ee\	.	fz
4r	4r	.	.
4r	4r	.	fff
=494	=494	=494	=494
(>8eee^<L	4r	.	.
8gg	.	.	.
8cc#J)	(8ccc#^<L	.	.
8r	8aaa#X 8ggg	.	.
4r	8ccc#	.	.
.	8eeeeJ)	.	.
!!LO:LB:g=original
=495	=495	=495	=495
(8ccc#^<L	4r	.	.
8ee	.	.	.
8a#XJ)	(8aa#X^<L	.	.
8r	8ggg 8eee	.	.
4r	8aa#	.	.
.	8cccc#J)	.	.
=496	=496	=496	=496
(8aa#X^<L	4r	.	.
8cc#	.	.	.
8gJ)	(>8gg^<L	.	.
8r	8eee 8ccc#X	.	.
4r	8gg	.	.
.	8aaa#XJ)	.	.
=497	=497	=497	=497
(>8gg^<L	4r	.	.
8a#X	.	.	.
8eJ)	(8ee^<L<	.	.
8r	8ccc# 8aa#X	.	.
4r	8ee	.	.
.	8gggJ)	.	.
=498	=498	=498	=498
!	!LO:TX:a:t=loco	!	!
(>8ee^<L<	4r	.	.
*	*X8va	*	*
8g	.	.	.
8c#XJ)	(8cc#^<L	.	.
8r	8aa#X 8gg	.	.
4r	8cc#	.	.
.	8eeeJ)	.	.
=499	=499	=499	=499
(<8cc#^>L	4r	.	.
8e	.	.	.
8A#XJ)	(8a#X^<L	.	.
8r	8gg 8ee	.	.
4r	8a#	.	.
.	8ccc#J)	.	.
=500	=500	=500	=500
(8a#X^>L	4r	.	.
8c#	.	.	.
8GJ)	(>8g^<L	.	.
8r	8ee 8cc#	.	.
4r	8g	.	.
*Xped	*	*	*
.	8aa#XJ)	.	.
*clefF4	*	*	*
!!LO:LB:g=original
=501	=501	=501	=501
*	*^	*	*
*ped	*	*	*	*
(8e^>L	(>4r	4.rAyy	.	.
8G	.	.	.	.
8C#J)	8r	.	.	.
8r	(<8c#^>L	4c#	.	.
4r	8g	.	.	.
*Xped	*	*	*	*
.	8eeJ)	8rcyy	.	.
=502	=502	=502	=502	=502
*ped	*	*	*	*
(8e^>L	4r	4.rcyy	.	.
8G	.	.	.	.
8CnJ)	8r	.	.	.
8r	(<8cn^>L	4cn	.	.
4r	8g	.	.	.
*Xped	*	*	*	*
.	8eeJ)	8rdyy	.	.
=503	=503	=503	=503	=503
*ped	*	*	*	*
(8e^>L	4r	4.rByy	.	.
8G	.	.	.	.
8BBJ)	8r	.	.	.
8r	(<8B^>L	4B	.	.
4r	8g	.	.	.
*Xped	*	*	*	*
.	8eeJ)	8rAyy	.	.
=504	=504	=504	=504	=504
*ped	*	*	*	*
(8e^>L	4r	4.rByy	.	.
8G	.	.	.	.
8AA#XJ)	8r	.	.	.
8r	(<8A#X^>L	4A#X	.	.
4r	8g	.	.	.
*Xped	*	*	*	*
.	8eeJ))	8rdyy	.	.
=505	=505	=505	=505	=505
*ped	*	*	*	*
(8e^>L	(>4r	4.reyy	.	.
8G	.	.	.	.
8C#J)	8r	.	.	.
8r	(<8c#^>L	4c#	.	.
4r	8g	.	.	.
*Xped	*	*	*	*
.	8eeJ)	8rcyy	.	.
=506	=506	=506	=506	=506
*ped	*	*	*	*
(8e^>L	4r	4.rdyy	.	.
8G	.	.	.	.
8CnJ)	8r	.	.	.
8r	8cn^>L	&(<4cn	.	.
4r	8g	.	.	.
*Xped	*	*	*	*
.	.	.	.	.
.	8eeJ&)	8rcyy	.	.
!!LO:PB:g=original
=507	=507	=507	=507	=507
*ped	*	*	*	*
(8eL	4r	4.rdyy	.	.
8G	.	.	.	.
8AAJ)	8r	.	.	.
8r	8B^>L	&(<4B	.	.
4r	8g	.	.	.
*Xped	*	*	*	*
.	8eeJ&)	8rdyy	.	.
=508	=508	=508	=508	=508
*ped	*	*	*	*
(8eL	4r	4.rFyy	.	.
8G	.	.	.	.
8AA#XJ)	8r	.	.	.
8r	8A#X^>L	(<4A#X	.	.
4r	8g	.	.	.
*Xped	*	*	*	*
.	8eeJ))	8rAyy	.	.
*	*v	*v	*	*
=509	=509	=509	=509
*	*	*	*^
!	!	!	!LO:DY:rj	!
(>8D^>L< 8EE#X	4r	.	fz	p
8FF#	.	.	.	.
8BBBJ)	8r	.	.	.
8rCC	(>8E#X<L	.	.	.
!	!	!	!LO:HP:a	!
.	.	.	<	.
4rCC	8F#<	.	.	.
.	8B<J	.	.	.
*	*	*	*v	*v
=510	=510	=510	=510
(4G^< 4E	8dL	.	.
.	8A#X	.	.
4F# 4D)	8c#	.	.
.	8B	.	.
4r	8d	.	.
.	8f#J	.	[[
=511	=511	=511	=511
(>8DL< 8EE#X	8b/)	.	.
8FF#	4r	.	.
8BBBJ)	.	.	.
!	!	!	!LO:HP:a
8rCC	(>8E#X<L	.	<
4rCC	8F#<	.	.
.	8B<J	.	.
=512	=512	=512	=512
(4G^< 4E	8dL	.	.
.	8A#X	.	.
4F# 4D)	8c#	.	.
.	8B	.	.
4r	8d	.	.
.	8f#J	.	[
!!LO:LB:g=original
=513	=513	=513	=513
!	!	!	!LO:DY:rj
4BB\	8dd)	.	fz
.	8r	.	.
4r	(8eeL	.	.
.	.	.	<
.	8a#X	.	.
4r	8dd	.	.
.	8bJ	.	.
=514	=514	=514	=514
*	*	*	*^
4d 4F#	8ggL	.	.	.
.	8cc#	.	.	.
4BB\	8ff#	.	.	.
.	8dd	.	.	.
4d 4F#	8ccc#	.	.	.
.	8ee#XJ	.	.	<
=515	=515	=515	=515	=515
4BB\	8bbL	.	.	.
.	8ff#	.	.	.
4d 4F#	8eee	.	.	.
.	8aa#X	.	.	.
4BB\	8ddd	.	.	.
.	8bbJ	.	.	.
=516	=516	=516	=516	=516
4d 4F#	4ggg'>)	.	[	.
4r	4r	.	.	.
4r	4r	.	.	.
*	*	*	*v	*v
=517	=517	=517	=517
!	!	!	!LO:DY:rj
(8E^>L< 8FF#	4r	.	fz
8GG	.	.	.
8BBBJ)	8r	.	.
!	!	!	!LO:HP:a
8rCC	(>8A#X<L	.	<
4rCC	8B<	.	.
.	8eJ	.	.
=518	=518	=518	=518
(4cn^< 4A	8gL	.	.
.	8d#X	.	.
4B 4G)	8f#	.	.
.	8e	.	.
4r	8g	.	.
.	8bJ	.	[[
!!LO:LB:g=original
=519	=519	=519	=519
(8EL< 8FF#	8ee)	.	.
8GG	4r	.	.
8BBBJ)	.	.	.
!	!	!	!LO:HP:a
8rCC	(8A#X<L	.	<
4rCC	8B<	.	.
.	8eJ	.	.
=520	=520	=520	=520
(4cn 4A	8gL	.	.
.	8d#X	.	.
4B 4G)	8f#	.	.
.	8e	.	.
4r	8g	.	.
.	8bJ	.	.
=521	=521	=521	=521
4BB\	8gg)	.	[
.	8r	.	.
!	!	!	!LO:DY:a
4r	(8ff#L	.	<
.	8a#X	.	.
4r	8ee	.	.
.	8bJ	.	.
=522	=522	=522	=522
*	*	*	*^
4e 4G	8aaL	.	.	.
.	8dd#X	.	.	.
4BB\	8gg	.	.	.
.	8ee	.	.	<
4e 4G	8cccn	.	.	.
.	8ff#J	.	.	.
=523	=523	=523	=523	=523
4BB\	8bbL	.	.	.
.	8gg	.	.	.
4e 4G	8fff#	.	.	.
.	8aa#X	.	.	.
4BB\	8eee	.	.	.
.	8bbJ	.	[[	.
*	*	*	*v	*v
=524	=524	=524	=524
*	*8va	*	*
4e 4G	4eeee)	.	fz
4r	4r	.	.
4r	4r	.	.
*clefG2	*	*	*
!!LO:LB:g=original
=525	=525	=525	=525
*^	*	*	*
!	!	!	!	!LO:DY:rj
4ff#	(<2.ee 2.cc# 2.a#	(>4fff#	.	f
2gg	.	8gggL	.	>
.	.	8fff#	.	.
.	.	8fffn	.	.
.	.	8eeeJ)	.	]
*v	*v	*	*	*
=526	=526	=526	=526
4gg'> 4dd 4b)	(8eeeL	.	>
.	8ddd	.	.
4f#'< 4F#	8ccc#	.	.
.	8bb	.	]
4r	8aa	.	.
.	8ggJ	.	.
*	*X8va	*	*
=527	=527	=527	=527
!	!LO:TX:a:t=loco.	!	!
4cc#' 4a	8ff#L	.	>
.	8gg	.	.
4F#'	8ee#X	.	.
.	8ff#	.	]
4b' 4g	8bb	.	.
.	8eenJ	.	.
=528	=528	=528	=528
4a' 4f#	8ddL	.	>
.	8ee	.	.
4F#'	8cc#X	.	.
.	8dd	.	.
4g' 4e	8gg	.	]
.	8bJ)	.	.
=529	=529	=529	=529
*^	*	*	*
*	*^	*	*	*
4g\	2c#	4rC	&&(>8b-XL<	.	>
.	.	.	8ee	.	.
4ryy	.	2F#	8g#X	.	.
.	.	.	8a	.	]
4f#/ 4d/	4ryy	.	8ff#	.	.
.	.	.	8ddJ	.	.
*clefF4	*	*	*	*	*
*	*v	*v	*	*	*
*v	*v	*	*	*
=530	=530	=530	=530
*^	*	*	*
*	*	*^	*	*
2c#/	4rAA	8b-XL	4g^<\	.	.
.	.	8ee	.	.	.
.	[>2F#\	8g#X	4ryy	.	.
.	.	8a	.	.	.
!	!	!	!LO:S:s=1:note:problem:note-level slur	!	!
4ryy	.	8ff#	&(<4f#\ (<4d	.	.
.	.	8ddJ	.	.	.
*	*	*v	*v	*	*
*v	*v	*	*	*
!!LO:LB:g=original
=531	=531	=531	=531
*	*^	*	*
*	*	*^	*	*
4F#]	8a-XL>	4fn&)	2B^<\)	.	.
.	8dd	.	.	.	.
[2F#	8f#X	2rddddyy	.	.	.
.	8g	.	.	.	.
.	8ee	.	[4e\ (<4c#	.	.
.	8cc#J	.	.	.	.
=532	=532	=532	=532	=532	=532
4F#]	8gL>	4e]	2A#X\)	.	.
.	8cc#	.	.	.	.
[<2F#	8e#X	2rbbbyy	.	.	.
.	8f#	.	.	.	.
.	8dd	.	N(>4d\ 4B	.	.
.	8bJ	.	.	.	.
*	*v	*v	*v	*	*
=533	=533	=533	=533
8e 8A#X 8F#N)]N)	8f#`<&&)	.	.
8r	(>8r	.	.
!	!LO:TX:t=P:diminuendolike accent:problem	!	!LO:DY:rj
4FF#^> 4FFF#	8g^<L	.	fz
.	8f#	.	.
4ryy	8fn	.	.
.	8eJ	.	.
=534	=534	=534	=534
!	!LO:TX:t=P:diminuendolike accent:problem	!	!
4G'> 4D 4BB	8e^L	.	.
.	8d	.	.
4FF#'< 4FFF#	8c#	.	.
.	8B	.	.
4rGG	8A<	.	.
.	8G<J	.	.
=535	=535	=535	=535
4C#'< 4AA	8F#<L	.	.
.	8G<	.	.
4FFF#'</	8E#X<	.	.
.	8F#<	.	.
4BB'< 4GG	8B<	.	.
.	8En<J	.	.
=536	=536	=536	=536
4AA'< 4FF#	8D<L	.	.
.	8E<	.	.
4FFF#'</	8C#<	.	.
.	8D<	.	.
[<4GG'< 4EE	8G<	.	.
.	8BB<J	.	.
=537	=537	=537	=537
*^	*	*	*
!LO:TX:t=P:2.GG and 2.CC# in the middle of the measure:problem	!	!	!	!
2.GG/_	[<2.CC#\	8AA#X<L	.	.
.	.	8C#<	.	.
.	.	8E<	.	.
.	.	8G<	.	.
.	.	8A#y<	.	.
.	.	8c#X<J	.	.
!!LO:LB:g=original
=538	=538	=538	=538	=538
!	!	!LO:TX:t=cres_:problem:dynamics with extention lines	!	!
!LO:TX:t=P:2.GG in the middle of the measure:problem	!	!	!	!LO:HP:t=cres
2.GG]	2CC#]	8d#XL	.	<
.	.	8e	.	.
.	.	8e#X	.	.
.	.	8f#	.	.
.	4BBB	8g	.	.
.	.	8dnJ	.	.
=539	=539	=539	=539	=539
4GG	4AAA#X	8c#L	.	.
.	.	8e	.	.
4r	2rAAAyy	8ee^> 8cc#	.	.
.	.	8a#X	.	.
4r	.	8g	.	.
.	.	8fnJ	.	.
*v	*v	*	*	*
=540	=540	=540	=540
*	*	*	*^
4r	8eL	.	.	.
.	8e-X	.	.	.
!	!	!	!	!LO:HP:b=2
(4G'>	8d	.	.	<
.	8c#	.	.	.
4G'>)	8cn	.	.	[
.	8BJ	.	.	.
*	*	*	*v	*v
=541	=541	=541	=541
*^	*	*	*
[2.G	[2.C#	8A#XL	.	.
.	.	8c#	.	.
.	.	8e	.	.
.	.	8g	.	.
.	.	8a#X	.	.
.	.	8cc#J	.	.
=542	=542	=542	=542	=542
2.G_	(2C#]	8dd#XL	.	.
.	.	8ee	.	.
.	.	8ee#X	.	.
.	.	8ff#	.	.
.	4BB	8gg	.	.
.	.	8ddnJ	.	.
=543	=543	=543	=543	=543
8G]	8AA#X)	8cc#)	.	[
8rcyy	8r	8r	.	.
2rgyy	4cn 4Cn	4aa#X'> 4gg 4ee 4a#X	.	.
.	4B 4BB	4bb'> 4gg 4ee 4b	.	ff
*v	*v	*	*	*
=544	=544	=544	=544
(>4A#X 4AA#X	4ccc#X'> 4gg 4ee 4cc#X	.	.
!	!LO:TX:a:t=ritenuto.	!	!LO:DY:rj:b=2
4G 4GG	4r	.	p
4AA#X 4AAA#X	4r	.	.
=545	=545	=545	=545
!LO:TX:t=P:brak rozpoczęcia ligatur przy 2.NN 2.BBB:problem	!	!	!
[2.BB^< [2.BBB	2.rdd	.	.
!!LO:PB:g=original
=546	=546	=546	=546
!LO:TX:t=P:brak zakończenia łuku:problem	!	!	!
(2.BB\] 2.BBB\])	4r	.	.
.	(>4dd 4g 4d	.	>
.	4g 4d 4G	.	]
=547	=547	=547	=547
*^	*	*	*
2c# 2G	2AA#X 2AAA#X)	4f#	.	.
.	.	4e)	.	.
!	!	!	!	!LO:DY:b=2:rj
4rgyy	(>4An 4AAn	4r	.	f
*v	*v	*	*	*
=548	=548	=548	=548
4G#X\ 4GG#X\	2.rdd	.	.
4Gn\ 4GGn\	.	.	.
4AA#X\ 4AAA#X\	.	.	.
=549	=549	=549	=549
[2.BB\ [2.BBB\)	4r	.	.
.	4r	.	.
.	(>4ee 4g 4e	.	>
=550	=550	=550	=550
2.BB\_ 2.BBB\_	4ee-X 4g 4e-X	.	.
.	4dd 4g 4d	.	]
.	4g 4d 4G<)	.	.
=551	=551	=551	=551
*^	*	*	*
N[2.c# N[2.G	[>2.BB] [2.BBB]	2f#^>	.	.
.	.	[>4e	.	.
*v	*v	*	*	*
=552	=552	=552	=552
4BB\] 4BBB\]	2.e] 2.c#<N] 2.G<N]	.	.
4BB\ 4BBB\	.	.	.
.	.	.	>
4AA#X\ 4AAA#X\	.	.	.
=553	=553	=553	=553
*^	*	*	*
2.B^> 2.F#	2.BB 2.BBB	(4e	.	.
.	.	4d)	.	.
.	.	4r	.	.
*v	*v	*	*	*
!!LO:LB:g=original
=554	=554	=554	=554
4BB'>\ 4BBB\	2.rdd	.	.
(4BB\ 4BBB\	.	.	.
4AA#X\ 4AAA#X\)	.	.	.
=555	=555	=555	=555
*^	*	*	*
2.B^> 2.F#	[>2.BB [2.BBB	(4e	.	.
.	.	4d)	.	.
.	.	4r	.	.
*v	*v	*	*	*
=556	=556	=556	=556
(4BB\] 4BBB\]	2.rdd	.	.
4C#\ 4CC#\	.	.	.
4D\ 4DD\)	.	.	.
=557	=557	=557	=557
*^	*	*	*
2.B 2.G	2.EE/ 2.EEE/	(2d^>	.	.
!	!	!LO:TX:a:t=ritenuto.	!	!
.	.	4c#)	.	.
*v	*v	*	*	*
=558	=558	=558	=558
!	!	!	!LO:DY:rj
[2.e	([2.ee^	.	p
=559	=559	=559	=559
2.e_	2.ee_	.	.
=560	=560	=560	=560
*^	*^	*	*
!LO:N:vis=2	!	!LO:TX:a:t=P:brak kaudy przy 2.ee:problem	!	!	!
2.e_	4d	2.ee_	4dd	.	.
.	4c#	.	4cc#	.	.
.	4B	.	4b	.	.
=561	=561	=561	=561	=561	=561
!LO:N:vis=2	!LO:N:vis=2	!LO:N:vis=2	!	!	!
2.e]	2.c#	(>2.ee])	2.cc#	.	.
*v	*v	*	*	*	*
*	*v	*v	*	*
*ped	*	*	*
.	.	.	.
(<8qC#/ 8qCC#/	(<8qb /8qe/	.	.
=562	=562	=562	=562
!	!LO:TX:a:t=rallentando.	!	!
[2.e)	2.ee)	.	.
*Xped	*	*	*
.	.	.	.
=563	=563	=563	=563
2.e]	[>2.ee	.	.
!!LO:LB:g=original
=564	=564	=564	=564
*^	*^	*	*
[2.e	4d	2.ee]	4dd	.	.
.	4c#	.	4cc#	.	.
.	4B	.	4b	.	.
=565	=565	=565	=565	=565	=565
!LO:N:vis=2	!LO:N:vis=2	!LO:N:vis=2	!	!	!
2.e]	2.c#	2.ee])	2.cc#	.	.
*v	*v	*	*	*	*
*	*v	*v	*	*
*ped	*	*	*
.	.	.	.
!	!LO:TX:a:t=a Tempo ed accel&colon;	!	!
8qG/ 8qGG/	((<[<8qb/ 8qe/	.	.
=566	=566	=566	=566
!	!	!	!LO:DY:rj
(2.e 2.E	2.ee^< [2.b])	.	f
=567	=567	=567	=567
!	!LO:TX:t=cres_:problem:dynamics with extention lines	!	!
!	!	!	!LO:HP:t=cres
4c# 4B)	2.cc# 2.b])	.	<
4r	.	.	.
*Xped	*	*	*
.	.	.	.
4r	.	.	.
*ped	*	*	*
.	.	.	.
8qG /8qGG/	[<(8qb/ 8qe#X/	.	.
=568	=568	=568	=568
(2.e#X^< 2.E#X	2.ee#X^< [2.b]	.	.
=569	=569	=569	=569
4c# 4B)	2.cc# 2.b])	.	.
4r	.	.	.
*Xped	*	*	*
4r	.	.	.
*ped	*	*	*
.	.	.	.
8qF#/ 8qFF#/	([<8qb/ 8qf#/	.	.
=570	=570	=570	=570
2.f#^< 2.F#	2.ff#^> 2.b]	.	.
*Xped	*	*	*
.	.	.	.
=571	=571	=571	=571
*ped	*	*	*
4e 4c# 4F#	4gg`> 4ee 4a#X 4g)	.	.
4r	4r	.	.
*Xped	*	*	*
4r	4r	.	[[
=572	=572	=572	=572
*ped	*	*	*
4F# 4FF#	4a#X 4e 4A#X	.	.
4r	4r	.	.
4r	4r	.	.
=573	=573	=573	=573
!	!LO:TX:a:t=Risoluto_e sempre piu animato.:dur=7q:ext=ud:ext2=s:problem:text with extention lines	!	!
4BB 4BBB	2.rdd	.	fz
4r	.	.	.
*Xped	*	*	*
4r	.	.	.
!!LO:LB:g=original
=574	=574	=574	=574
!	!	!	!LO:DY:rj
*ped	*	*	*
*coll8ba	*	*	*
!LO:TX:t=P:coll' ottava mark:problem	!	!	!
4DD\ 4DDD\	(>8C#<^>L	.	f
*Xcoll8ba	*	*	*
.	8D<	.	.
4BB\ 4FF#\	8d<	.	.
.	8F#<	.	.
4rGG	8B<	.	.
*Xped	*	*	*
.	.	.	.
.	8D<J	.	.
=575	=575	=575	=575
*ped	*	*	*
*coll8ba	*	*	*
!LO:TX:t=P:coll' ottava mark:problem	!	!	!
4CC#\ 4CCC#\	8D#X<L	.	.
*Xcoll8ba	*	*	*
.	8E<^>	.	.
!	!LO:TX:t=cres_:problem:dynamics with extention lines	!	!
!	!	!	!LO:HP:t=cres
4BB\ 4GG\	8e	.	<
.	8G<	.	.
4rGG	8B<	.	.
*Xped	*	*	*
.	.	.	.
.	8E<J	.	.
=576	=576	=576	=576
*ped	*	*	*
*coll8ba	*	*	*
!LO:TX:b:t=P:coll' ottava mark:problem	!	!	!
4FF#\ 4FFF#\	8E#X<L	.	.
*Xcoll8ba	*	*	*
.	8F#<^>	.	.
4En\ 4AA#X\	8f#	.	.
.	8A#X<	.	.
4rAA	8c#	.	.
*Xped	*	*	*
.	.	.	.
.	8F#<J	.	.
=577	=577	=577	=577
*ped	*	*	*
4BB'>\ 4BBB\	8A#X<^>L	.	.
.	8B<	.	.
2F#^> 2D	8b	.	.
.	8d	.	.
.	8f#	.	.
*Xped	*	*	*
.	.	.	.
.	8BJ	.	.
=578	=578	=578	=578
*ped	*	*	*
4D'>\ 4DD\	8c#L	.	.
.	8d	.	.
2B^> 2F#	8dd	.	.
.	8f#	.	.
.	8b	.	.
*Xped	*	*	*
.	.	.	.
.	8dJ	.	[
=579	=579	=579	=579
*ped	*	*	*
!	!LO:TX:t=cres_:problem:dynamics with extention lines	!	!
!	!	!	!LO:HP:t=cres
4C#'< 4CC#	8d#XL	.	<
.	8e	.	.
2B^> 2G	8ee	.	.
.	8g	.	.
.	8b	.	.
*Xped	*	*	*
.	.	.	.
.	8eJ	.	[[
!!LO:LB:g=original
=580	=580	=580	=580
*ped	*	*	*
4F# 4FF#	8e#XL	.	.
.	8f#	.	.
2en^> 2A#X	8ff#	.	.
.	8a#X	.	.
.	8cc#	.	.
*Xped	*	*	*
.	.	.	.
.	8f#J	.	.
=581	=581	=581	=581
*ped	*	*	*
4B 4BB	8a#XL	.	.
.	8b	.	.
2f#^> 2d	8bb	.	.
.	8dd	.	.
.	8ff#	.	.
*Xped	*	*	*
.	.	.	.
.	8bJ	.	.
=582	=582	=582	=582
*ped	*	*	*
4d 4D	8cc#L	.	.
.	8dd	.	.
*clefG2	*	*	*
2b^>\ 2f#\	8ddd	.	.
.	8ff#	.	.
*Xped	*	*	*
.	8bb	.	.
.	8ddJ	.	.
*clefF4	*	*	*
=583	=583	=583	=583
*ped	*	*	*
4c# 4C#	8dd#XL	.	.
.	8ee	.	.
*clefG2	*	*	*
2b^>\ 2g\	8ccc#	.	.
.	8gg	.	.
*Xped	*	*	*
.	8bb	.	.
.	8eeJ	.	.
=584	=584	=584	=584
*ped	*	*	*
4f# 4F#	8ee#XL	.	.
.	8ff#	.	.
2ee^> 2a#X	8fff#	.	.
.	8aa#X	.	.
.	8ccc#	.	.
*Xped	*	*	*
.	.	.	.
.	8ff#J)	.	.
=585	=585	=585	=585
*ped	*	*	*
!	!	!	!LO:DY:rj
*	*8va	*	*
2.gg^> 2.ee 2.cc# 2.b 2.g	(8aa#XL	.	ff
.	8bb	.	.
.	8bbb	.	.
.	8eee	.	.
.	8ggg	.	.
.	8bbJ)	.	.
!!LO:LB:g=original
=586	=586	=586	=586
2.gg^> 2.ee 2.cc# 2.b 2.g	(>8aa#XL	.	<
.	8bb	.	.
.	8bbb	.	.
.	8eee	.	.
.	8ggg	.	.
.	8bbJ)	.	.
=587	=587	=587	=587
2.gg^> 2.ee 2.cc# 2.b 2.g	(>8aa#XL	.	.
.	8bb	.	.
.	8bbb	.	.
.	8eee	.	.
.	8ggg	.	.
.	8bbJ)	.	.
=588	=588	=588	=588
2.gg^> 2.ee 2.cc# 2.b 2.g	(8aa#XL	.	.
.	8bb	.	.
.	8bbb	.	.
.	8eee	.	.
.	8ggg	.	.
*Xped	*	*	*
.	8bbJ)	.	[
=589	=589	=589	=589
*ped	*	*	*
4gg#y^> 4ee#X 4cc# 4b 4g#y	(>8aa#XL	.	.
.	8bb	.	.
4r	8bbb	.	.
.	8ggg#X	.	.
4r	8eee#X	.	.
.	8ccc#J	.	.
*	*X8va	*	*
=590	=590	=590	=590
!	!LO:TX:a:t=loco.	!	!
4cc#^< 4c#	8bbL	.	.
.	8gg#X	.	.
4r	8ee#X	.	.
.	8cc#	.	.
4r	8bb	.	.
.	8gg#J	.	.
*clefF4	*	*	*
=591	=591	=591	=591
!	!LO:TX:t=P:mixed beam:problem	!	!
4c# 4C#	8ee#X^<L\	.	.
.	8cc#\	.	.
4r	8b\	.	.
.	8a#X\	.	.
4r	8e#X\	.	.
.	8c#J/	.	.
!!LO:PB:g=original
=592	=592	=592	=592
4C#^<\ 4CC#\	8B<L	.	.
.	8G#X<	.	.
4rCC	8E#X<	.	.
.	8C#<	.	.
4rCC	8BB<	.	.
.	8GG#X<J)	.	.
=593	=593	=593	=593
8BBB#XL<	8BB#X<^>L	.	.
8CC#J	8C#<	.	.
4rCC	8BB#<	.	.
.	8C#<	.	.
4rCC	8BB#<	.	.
.	8C#<J	.	.
=594	=594	=594	=594
8DDL<	8D<^>L	.	.
8CC#J	8C#<	.	.
4rCC	8D<	.	.
.	8C#<	.	.
4rCC	8D<	.	.
.	8C#<J	.	.
=595	=595	=595	=595
8BBB#XL<	8BB#X<^>L	.	.
8CC#J	8C#<	.	.
4rCC	8BB#<	.	.
.	8C#<	.	.
4rCC	8BB#<	.	.
.	8C#<J	.	.
=596	=596	=596	=596
8DDL	8D<^>L	.	.
8CC#J	8C#<	.	.
4rCC	8D<	.	.
.	8C#<	.	.
4rCC	8D<	.	.
.	8C#<J	.	.
=597	=597	=597	=597
*ped	*	*	*
4FF# 4FFF#	2.rdd	.	.
4r	.	.	.
4r	.	.	.
*clefG2	*	*	*
=598	=598	=598	=598
*	*8va	*	*
!	!	!	!LO:DY:rj
[2.g [2.e#X 2.d [2.B [2.F#	[2.ggg [2.ddd 2.bb [2.gg [2.ee#X	.	fff
!!LO:LB:g=original
=599	=599	=599	=599
4g] 4e#X] 4d 4B] 4F#]	4ggg] 4ddd] 4bb 4gg] 4ee#X]	.	.
4g 4e# 4d 4B 4F#	4ggg^> 4ddd 4bb 4gg 4ee#	.	.
4g 4e# 4d 4B 4F#	4ggg^> 4ddd 4bb 4gg 4ee#	.	.
=600	=600	=600	=600
4g 4e#X 4d 4B 4F#	4ggg^> 4ddd 4bb 4gg 4ee#X	.	.
4g 4e# 4d 4B 4F#	4ggg^> 4ddd 4bb 4gg 4ee#	.	.
4g 4e# 4d 4B 4F#	4ggg^> 4ddd 4bb 4gg 4ee#	.	.
=601	=601	=601	=601
2.g 2.e#X 2.d 2.B 2.F#	2.ggg 2.ddd 2.bb 2.gg 2.ee#X	.	.
=602	=602	=602	=602
2.g^> 2.e#X 2.d 2.B 2.F#	2.ggg 2.ddd 2.bb 2.gg 2.ee#X	.	.
=603	=603	=603	=603
2.g^> 2.e#X 2.d 2.B 2.F#	2.ggg^> 2.ddd 2.bb 2.gg 2.ee#X	.	.
=604	=604	=604	=604
2f#^> 2en 2c# 2F#	2aaa#X^> 2fff# 2eeen 2aa#X	.	.
4r	4r	.	.
*clefF4	*	*	*
=605	=605	=605	=605
*ped	*	*	*
!	!LO:TX:t=con brio.	!	!
4BBB'	4bbb`> 4ddd 4bb	.	.
4r	(>8dddd^<L 8bbb	.	.
.	8fff#	.	.
4r	8dddd 8bbb	.	.
.	8ccc#J	.	.
!!LO:LB:g=original
=606	=606	=606	=606
4D 4FF#	8bbbL 8fff#	.	.
.	8ddd	.	.
4BBB	8bbb 8fff#	.	.
.	8aa#X	.	.
4D 4FF#	8fff# 8ddd	.	.
.	8bbJ	.	.
*Xped	*	*	*
.	.	.	.
=607	=607	=607	=607
4BBB'<	8fff#L 8ddd	.	.
.	8ee#X	.	.
4D'< 4FF#	8ddd 8bb	.	.
.	8ff#	.	.
*	*X8va	*	*
!	!LO:TX:a:t=loco.	!	!
4BBB'<	8ddd 8bb	.	.
.	8cc#J	.	.
=608	=608	=608	=608
4D'< 4FF#	8bbL 8ff#	.	.
.	8dd	.	.
4BBB'<	8bb 8ff#	.	.
.	8a#X	.	.
4D'< 4FF#	8ff# 8dd	.	.
.	8bJ	.	.
=609	=609	=609	=609
4BBB'<	8ff#L< 8dd	.	.
.	8e#X	.	.
4D'< 4FF#	8dd 8b	.	.
.	8f#	.	.
4BBB'<	8dd 8b	.	.
.	8c#J	.	.
=610	=610	=610	=610
4D'< 4FF#	8bL 8f#	.	.
.	8d	.	.
4BBB'<	8b 8f#	.	.
.	8A#X<	.	.
4D'< 4FF#	8f# 8d	.	.
.	8B<J	.	.
!!LO:LB:g=original
=611	=611	=611	=611
4BBB'>\	8f#^>L 8d	.	.
.	8B<	.	.
4D'>\ 4FF#\	8f# 8d	.	.
.	8E#X<	.	.
4BBB'>\	8f# 8d	.	.
.	8F#<J	.	.
=612	=612	=612	=612
4D'>\ 4FF#\	8f#^>L 8d	.	.
.	8B<	.	.
4BBB'>\	8f# 8d	.	.
.	8E#X<	.	.
4D'>\ 4FF#\	8f# 8d	.	.
.	8F#<J	.	.
=613	=613	=613	=613
8BBB\	8f#`< 8d 8B)	.	fz
8rCC	8r	.	.
(<8CC#L<	(>8C#<L	.	.
8DD	8D<	.	.
8DD#X	8D#X<	.	.
8EEJ	8E<J	.	.
=614	=614	=614	=614
8EE#XL<	8E#X<^>L	.	.
8FF#	8F#<	.	.
8GG	8G<	.	.
8GG#X	8G#X<	.	.
8AA	8A<	.	.
8AA#XJ	8A#X<J	.	.
=615	=615	=615	=615
!	!LO:TX:a:t=cres_:problem:dynamics with extention line	!	!
!	!LO:TX:t=P:diminuendolike accent:problem	!	!LO:HP:a:t=cres
8BBL<	8B^<L	.	<
8Cn	8cn	.	.
8C#X	8c#X	.	.
8D	8d	.	.
8D#X	8d#X	.	.
8EJ	8eJ	.	.
!!LO:LB:g=original
=616	=616	=616	=616
8E#XL	8e#X^L	.	.
8F#	8f#	.	.
8G	8g	.	.
8G#X	8g#X	.	.
8A	8a	.	.
8A#XJ	8a#XJ	.	.
*clefG2	*	*	*
=617	=617	=617	=617
8BL	8b^<L	.	.
8cn	8ccn	.	.
8c#X	8cc#X	.	.
8d	8dd	.	.
8d#X	8dd#X	.	[
8eJ	8eeJ	.	.
=618	=618	=618	=618
8e#XL	8ee#X^<L	.	.
8f#	8ff#	.	.
8g	8gg	.	.
8g#X	8gg#X	.	.
8a	8aa	.	.
8a#XJ	8aa#XJ	.	.
=619	=619	=619	=619
8bL	8bb^<L	.	.
8ccny	8cccny	.	.
8cc#X	8ccc#X	.	.
8dd	8ddd	.	.
8dd#X	8ddd#X	.	.
8eeJ	8eeeJ	.	.
=620	=620	=620	=620
*	*8va	*	*
8ee#XL	8eee#X^<L	.	.
8ff#	8fff#	.	.
8gg	8ggg	.	.
8gg#X	8ggg#X	.	.
8aa	8aaa	.	.
8aa#XJ)	8aaa#XJ)	3	.
!!LO:LB:g=original
=621	=621	=621	=621
4bb'>	4bbb'>	3	.
*	*X8va	*	*
!	!LO:TX:a:t=loco.	!	!
4r	4r	.	.
4r	4r	.	.
*clefF4	*	*	*
=622	=622	=622	=622
4e 4c# 4F#	4ff#'<^</ 4cc#/ 4a#X/ 4f#/	.	.
4r	4r	.	.
4r	4r	.	.
=623	=623	=623	=623
4B 4F# 4BB	4dd'<^< 4b 4f# 4d	.	.
4r	4r	.	.
4r	4r	.	.
=624	=624	=624	=624
4E\ 4BB\ 4EE\	4g'>^ 4e 4B< 4G<	.	.
4r	4r	.	.
4r	4r	.	.
=625	=625	=625	=625
4BB'< 4BBB	4b'<^< 4f# 4d 4B	.	.
4r	4r	.	.
4r	4r	.	.
=626	=626	=626	=626
!LO:TX:a:t=1	!LO:TX:a:t=1	!	!
2.rF	2.rdd	.	.
=627	=627	=627	=627
!	!	!	!LO:DY:rj
[2.BB [>2.GG [2.BBB	[2.bb^< [2.ee [2.cc# [2.b	.	fff
=628	=628	=628	=628
2.BB] 2.GG] 2.BBB]	2.bb] 2.ee] 2.cc#] 2.b]	.	.
=629	=629	=629	=629
2.BB;< 2.FF# 2.BBB	2.bb; 2.ff# 2.dd 2.b	.	.
!	!LO:TX:a:B:t=Fin.	!	!
.	.	.	.
==	==	==	==
*-	*-	*-	*-
!!!system-decoration: {(s1,s2)}
!!!RDF**kern: > = above
!!title: @{OTL}; @{OPS} @{ONM} publisher: @{PPR}
!!!RDF**kern: > = above
!!!RDF**kern: < = below
!!!RDF**kern: N = linked
!!!RDF**dynam: > = "dim.", fontstyle="normal"
!!!RDF**dynam: < = "cres.", fontstyle="normal"
!!!RDF**kern: i = editorial accidental
!!!ENC: Emilia Ziętek
!!!END: 2019-11-25
!!!EED: Jędrzej Mróz
!!!EST: revision finished 2019-11-26
!!!rism-genre: Scherzo
!!!rism-key: B minor
!!!rism-opus: op. 20
!!!rism-title: Scherzo in B minor op. 20
!!!rism-permalink: https://opac.rism.info/search?id=1001065929&View=rism
